; generated by PrusaSlicer 2.8.0 on 2024-08-13 at 22:45:40 UTC

; 

; external perimeters extrusion width = 0.42mm
; perimeters extrusion width = 0.44mm
; infill extrusion width = 0.44mm
; solid infill extrusion width = 0.44mm
; top infill extrusion width = 0.40mm
; first layer extrusion width = 0.42mm

M201 X500 Y500 Z100 E5000 ; sets maximum accelerations, mm/sec^2
M203 X500 Y500 Z10 E60 ; sets maximum feedrates, mm / sec
M204 S500 T1000 ; sets acceleration (S) and retract acceleration (R), mm/sec^2
M205 X8.00 Y8.00 Z0.40 E5.00 ; sets the jerk limits, mm/sec
M205 S0 T0 ; sets the minimum extruding and travel feed rate, mm/sec

; printing object 3dbenchy.stl id:0 copy 0
; stop printing object 3dbenchy.stl id:0 copy 0

;TYPE:Custom
G90 ; use absolute coordinates
M83 ; extruder relative mode
M104 S150 ; set temporary nozzle temp to prevent oozing during homing
M140 S60 ; set final bed temp
G4 S30 ; allow partial nozzle warmup
G28 ; home all axis
G1 Z50 F240
G1 X2.0 Y10 F3000
M104 S215 ; set final nozzle temp
M190 S60 ; wait for bed temp to stabilize
M109 S215 ; wait for nozzle temp to stabilize
G1 Z0.28 F240
G92 E0
G21 ; set units to millimeters
G90 ; use absolute coordinates
M83 ; use relative distances for extrusion
; Filament gcode
M107
;LAYER_CHANGE
;Z:0.2
;HEIGHT:0.2
G1 E-5 F3600
G1 Z.2 F9000
G1 X134.626 Y49.016
G1 Z.2
G1 E5 F2400
M204 S500
;TYPE:Skirt/Brim
;WIDTH:0.42
G1 F1200
G1 X135.166 Y47.804 E.0416
G1 X135.857 Y46.902 E.03563
G1 X136.731 Y46.169 E.03577
G1 X137.839 Y45.606 E.03897
G1 X138.535 Y45.403 E.02273
G1 X139.27 Y45.293 E.0233
G1 X162.848 Y43.824 E.74071
G1 X164.211 Y43.792 E.04275
G1 X166.748 Y43.999 E.07981
G1 X169.111 Y44.512 E.07582
G1 X171.444 Y45.348 E.0777
G1 X173.649 Y46.486 E.0778
G1 X175.631 Y47.863 E.07567
G1 X177.374 Y49.437 E.07364
G1 X178.981 Y51.315 E.0775
G1 X180.319 Y53.39 E.07741
G1 X180.71 Y54.45 E.03542
G1 X180.849 Y55.616 E.03682
G1 X180.717 Y56.721 E.03489
G1 X180.257 Y57.928 E.0405
G1 X179.111 Y59.708 E.06638
G1 X177.745 Y61.371 E.06748
G1 X176.27 Y62.805 E.0645
G1 X174.662 Y64.058 E.06392
G1 X173.448 Y64.833 E.04516
G1 X172.171 Y65.516 E.04541
G1 X170.845 Y66.1 E.04543
G1 X169.518 Y66.566 E.0441
G1 X168.114 Y66.942 E.04557
G1 X166.698 Y67.208 E.04517
G1 X165.285 Y67.362 E.04457
G1 X163.842 Y67.408 E.04527
G1 X138.914 Y65.866 E.78309
G1 X137.847 Y65.596 E.03451
G1 X136.832 Y65.096 E.03548
G1 X136.124 Y64.557 E.0279
G1 X135.392 Y63.737 E.03446
G1 X134.984 Y63.069 E.02454
G1 X134.697 Y62.398 E.02288
G1 X134.404 Y61.014 E.04436
G1 X134.404 Y50.185 E.33954
G1 X134.615 Y49.075 E.03543
G1 X134.615 Y49.075 F9000
G1 X134.984 Y49.145
G1 F1200
G1 X134.988 Y49.122 E.00073
G1 X135.487 Y48.003 E.03842
G1 X136.127 Y47.165 E.03306
G1 X136.937 Y46.485 E.03316
G1 X137.973 Y45.959 E.03643
G1 X139.305 Y45.668 E.04275
G1 X164.208 Y44.169 E.78223
G1 X166.694 Y44.372 E.07821
G1 X169.01 Y44.875 E.07431
G1 X171.292 Y45.693 E.07601
G1 X173.456 Y46.81 E.07636
G1 X175.397 Y48.159 E.07411
G1 X177.102 Y49.698 E.07202
G1 X178.68 Y51.542 E.0761
G1 X179.981 Y53.558 E.07523
G1 X180.363 Y54.62 E.03539
G1 X180.468 Y55.788 E.03677
G1 X180.301 Y56.82 E.03278
G1 X179.884 Y57.823 E.03406
G1 X178.736 Y59.582 E.06586
G1 X177.436 Y61.15 E.06386
G1 X175.853 Y62.666 E.06872
G1 X174.196 Y63.919 E.06514
G1 X172.978 Y64.667 E.04482
G1 X171.704 Y65.321 E.0449
G1 X170.382 Y65.874 E.04493
G1 X169.086 Y66.303 E.0428
G1 X166.416 Y66.867 E.08556
G1 X165.046 Y67 E.04316
G1 X163.664 Y67.029 E.04334
G1 X138.973 Y65.493 E.77567
G1 X137.98 Y65.243 E.03211
G1 X137.038 Y64.78 E.03291
G1 X136.219 Y64.127 E.03284
G1 X135.557 Y63.309 E.03299
G1 X134.989 Y62.079 E.04248
G1 X134.767 Y60.783 E.04123
G1 X134.78 Y50.22 E.3312
G1 X134.973 Y49.204 E.03243
G1 E-3.5 F3600
;WIPE_START
G1 F7200
G1 X134.984 Y49.145 E-.02851
G1 X134.988 Y49.122 E-.01109
G1 X135.487 Y48.003 E-.58198
G1 X136.127 Y47.165 E-.50086
G1 X136.736 Y46.654 E-.37756
;WIPE_END
; printing object 3dbenchy.stl id:0 copy 0
G1 X162.299 Y54.371 F9000
G1 E5 F2400
;TYPE:External perimeter
;WIDTH:0.419999
G1 F1200
G1 X162.307 Y54.278 E.00293
G1 X162.391 Y54.111 E.00586
G1 X162.631 Y53.893 E.01017
G1 X163.048 Y53.776 E.01358
G1 X163.467 Y53.914 E.01383
G1 X163.791 Y54.305 E.01592
G1 X163.988 Y54.776 E.01601
G1 X164.093 Y54.904 E.00519
G1 X164.252 Y54.695 E.00823
G1 X164.454 Y54.221 E.01616
G1 X164.828 Y53.859 E.01632
G1 X165.233 Y53.783 E.01292
G1 X165.533 Y53.91 E.01021
;WIDTH:0.43774
G1 X165.813 Y54.247 E.01438
;WIDTH:0.464744
G1 X165.887 Y54.548 E.01087
G1 X165.773 Y54.897 E.01288
;WIDTH:0.419999
G1 X165.102 Y56.034 E.04139
G1 X165.017 Y56.302 E.00882
G1 X165.105 Y56.574 E.00896
G1 X165.732 Y57.617 E.03816
G1 X165.887 Y57.978 E.01232
G1 X165.921 Y58.254 E.00872
G1 X165.877 Y58.521 E.00848
G1 X165.744 Y58.749 E.00828
G1 X165.483 Y58.935 E.01005
G1 X165.084 Y59.006 E.01271
G1 X164.835 Y58.943 E.00805
G1 X164.642 Y58.814 E.00728
G1 X164.493 Y58.633 E.00735
G1 X164.297 Y58.242 E.01371
G1 X164.208 Y57.98 E.00868
G1 X164.032 Y57.799 E.00792
G1 X163.871 Y57.961 E.00716
G1 X163.758 Y58.272 E.01037
G1 X163.496 Y58.707 E.01592
G1 X163.096 Y58.971 E.01503
G1 X162.799 Y58.962 E.00932
G1 X162.503 Y58.801 E.01056
;WIDTH:0.421145
G1 X162.297 Y58.534 E.01061
;WIDTH:0.427023
G1 X162.276 Y58.247 E.00919
G1 X162.391 Y57.735 E.01676
;WIDTH:0.42605
G1 X162.637 Y57.283 E.01639
;WIDTH:0.419999
G1 X162.9 Y56.813 E.01689
G1 X163.196 Y56.365 E.01684
G1 X162.437 Y55.057 E.04742
G1 X162.282 Y54.571 E.01599
G1 X162.294 Y54.43 E.00444
G1 E-3.5 F3600
;WIPE_START
G1 F7200
G1 X162.299 Y54.371 E-.02813
G1 X162.307 Y54.278 E-.04434
G1 X162.391 Y54.111 E-.08879
G1 X162.631 Y53.893 E-.15401
G1 X163.048 Y53.776 E-.20572
G1 X163.467 Y53.914 E-.20954
G1 X163.791 Y54.305 E-.2412
G1 X163.988 Y54.776 E-.24251
G1 X164.093 Y54.904 E-.07864
G1 X164.252 Y54.695 E-.12474
G1 X164.32 Y54.535 E-.08238
;WIPE_END
G1 X161.265 Y56.807 F9000
G1 E5 F2400
G1 F1200
G1 X161.584 Y57.02 E.01203
G1 X161.845 Y57.405 E.01458
;WIDTH:0.437596
G1 X161.949 Y57.85 E.015
G1 X161.87 Y58.404 E.01836
;WIDTH:0.423933
G1 X161.611 Y58.865 E.01675
;WIDTH:0.419999
G1 X161.249 Y59.142 E.01429
G1 X160.929 Y59.251 E.0106
G1 X160.682 Y59.271 E.00777
G1 X160.227 Y59.188 E.0145
G1 X159.83 Y58.946 E.01458
G1 X159.552 Y58.572 E.01461
G1 X159.443 Y58.115 E.01473
G1 X159.566 Y57.58 E.01721
;WIDTH:0.391
G1 X159.789 Y57.174 E.01341
;WIDTH:0.419999
G1 X160.177 Y56.803 E.01683
G1 X160.705 Y56.668 E.01709
G1 X161.197 Y56.762 E.01571
G1 X161.215 Y56.774 E.00068
G1 X161.215 Y56.774 F9000
G1 X159.731 Y56.45
G1 F1200
G1 X159.501 Y56.978 E.01806
;WIDTH:0.391
G1 X159.265 Y57.461 E.01556
;WIDTH:0.419999
G1 X158.989 Y57.936 E.01722
G1 X158.874 Y58.096 E.00618
G1 X158.42 Y58.457 E.01819
G1 X157.798 Y58.681 E.02073
G1 X157.3 Y58.766 E.01584
G1 X156.775 Y58.793 E.01648
G1 X156.048 Y58.787 E.0228
G1 X155.453 Y58.826 E.0187
G1 X155.046 Y58.699 E.01337
G1 X154.807 Y58.361 E.01298
G1 X154.72 Y57.857 E.01604
G1 X154.737 Y57.264 E.0186
G1 X154.742 Y53.65 E.11331
G1 X154.708 Y52.986 E.02085
G1 X154.864 Y52.617 E.01256
G1 X154.995 Y52.517 E.00517
G1 X155.352 Y52.354 E.01231
G1 X155.656 Y52.324 E.00958
G1 X157.253 Y52.36 E.05009
G1 X157.845 Y52.445 E.01875
G1 X158.332 Y52.598 E.01601
G1 X158.714 Y52.816 E.01379
G1 X159.026 Y53.09 E.01302
G1 X159.331 Y53.484 E.01562
G1 X159.566 Y53.938 E.01603
G1 X159.756 Y54.57 E.02069
G1 X159.831 Y55.157 E.01855
G1 X159.83 Y55.926 E.02411
G1 X159.745 Y56.391 E.01482
G1 E-3.5 F3600
;WIPE_START
G1 F7200
G1 X159.731 Y56.45 E-.0288
G1 X159.501 Y56.978 E-.27356
G1 X159.265 Y57.461 E-.25535
G1 X158.989 Y57.936 E-.26095
G1 X158.874 Y58.096 E-.09359
G1 X158.42 Y58.457 E-.27552
G1 X157.802 Y58.68 E-.31223
;WIPE_END
G1 X166.326 Y54.65 F9000
G1 E5 F2400
;WIDTH:0.457205
G1 F1200
G1 X166.317 Y54.613 E.00131
;WIDTH:0.461804
G1 X166.308 Y54.432 E.00631
G1 X166.416 Y54.112 E.01176
;WIDTH:0.419999
G1 X166.646 Y53.871 E.01045
G1 X166.922 Y53.782 E.00909
G1 X167.269 Y53.81 E.01092
G1 X167.679 Y54.031 E.0146
G1 X167.867 Y54.323 E.01089
G1 X168.22 Y55.487 E.03814
G1 X168.256 Y55.706 E.00696
G1 X168.455 Y56.237 E.01778
G1 X168.516 Y56.216 E.00202
G1 X168.836 Y54.974 E.04021
G1 X169.107 Y54.28 E.02336
G1 X169.35 Y53.97 E.01235
G1 X169.686 Y53.788 E.01198
G1 X169.958 Y53.806 E.00855
G1 X170.144 Y53.898 E.00651
;WIDTH:0.427324
G1 X170.458 Y54.262 E.01537
;WIDTH:0.431844
G1 X170.512 Y54.514 E.00833
;WIDTH:0.432724
G1 X170.473 Y55.006 E.016
G1 X170.268 Y55.466 E.01632
;WIDTH:0.419999
G1 X169.032 Y58.96 E.1162
G1 X168.654 Y59.934 E.03276
G1 X168.393 Y60.509 E.0198
G1 X168.089 Y60.961 E.01708
G1 X167.723 Y61.25 E.01462
G1 X167.254 Y61.449 E.01597
G1 X166.723 Y61.528 E.01683
G1 X166.332 Y61.424 E.01269
G1 X166.08 Y61.196 E.01066
G1 X165.931 Y60.861 E.0115
G1 X165.903 Y60.545 E.00995
G1 X166.013 Y60.241 E.01014
G1 X166.348 Y60.011 E.01274
G1 X166.845 Y59.861 E.01628
G1 X167.082 Y59.672 E.0095
G1 X167.322 Y59.157 E.01781
G1 X167.654 Y58.327 E.02803
G1 X167.541 Y57.961 E.01201
G1 X167.307 Y57.411 E.01874
G1 X166.752 Y55.911 E.05015
G1 X166.456 Y55.191 E.02441
;WIDTH:0.457205
G1 X166.34 Y54.708 E.01711
G1 E-3.5 F3600
;WIPE_START
G1 F7200
G1 X166.326 Y54.65 E-.02834
G1 X166.317 Y54.613 E-.01809
G1 X166.308 Y54.432 E-.08608
G1 X166.416 Y54.112 E-.16042
G1 X166.646 Y53.871 E-.15824
G1 X166.922 Y53.782 E-.13775
G1 X167.269 Y53.81 E-.16536
G1 X167.679 Y54.031 E-.22124
G1 X167.867 Y54.323 E-.16496
G1 X168.087 Y55.048 E-.35952
;WIPE_END
G1 X170.903 Y54.845 F9000
G1 E5 F2400
;WIDTH:0.44606
G1 F1200
G1 X170.908 Y54.284 E.01881
;WIDTH:0.427324
G1 X171.004 Y54.099 E.00666
;WIDTH:0.419999
G1 X171.173 Y53.942 E.00723
G1 X171.45 Y53.818 E.00952
G1 X171.943 Y53.771 E.01553
G1 X173.953 Y53.775 E.06302
G1 X174.31 Y53.874 E.01162
G1 X174.57 Y54.13 E.01144
G1 X174.685 Y54.62 E.01578
G1 X174.646 Y54.922 E.00955
G1 X174.549 Y55.174 E.00847
G1 X174.276 Y55.609 E.0161
G1 X173.362 Y56.9 E.0496
G1 X173.161 Y57.127 E.00951
G1 X172.985 Y57.401 E.01021
G1 X173.478 Y57.411 E.01546
G1 X173.677 Y57.375 E.00634
G1 X174.155 Y57.442 E.01513
G1 X174.4 Y57.558 E.0085
G1 X174.648 Y57.835 E.01166
G1 X174.696 Y58.148 E.00993
G1 X174.609 Y58.365 E.00733
;WIDTH:0.389322
G1 X174.523 Y58.582 E.00672
;WIDTH:0.381729
G1 X174.299 Y58.786 E.00854
;WIDTH:0.419999
G1 X173.805 Y58.942 E.01624
G1 X173.151 Y58.987 E.02055
G1 X172.265 Y58.984 E.02778
G1 X171.581 Y59.011 E.02146
G1 X171.172 Y58.897 E.01331
G1 X170.892 Y58.553 E.01391
G1 X170.81 Y58.228 E.01051
G1 X170.818 Y57.959 E.00844
G1 X170.894 Y57.69 E.00876
G1 X171.221 Y57.136 E.02017
G1 X171.997 Y56.097 E.04066
G1 X172.498 Y55.524 E.02386
G1 X172.577 Y55.322 E.0068
G1 X172.365 Y55.281 E.00677
G1 X171.924 Y55.344 E.01397
G1 X171.452 Y55.315 E.01483
G1 X171.215 Y55.221 E.00799
;WIDTH:0.432724
G1 X170.957 Y54.979 E.01147
;WIDTH:0.44606
G1 X170.924 Y54.9 E.00287
G1 E-3.5 F3600
;WIPE_START
G1 F7200
G1 X170.903 Y54.845 E-.02796
G1 X170.908 Y54.284 E-.26649
G1 X171.004 Y54.099 E-.099
G1 X171.173 Y53.942 E-.10957
G1 X171.45 Y53.818 E-.14416
G1 X171.943 Y53.771 E-.23524
G1 X173.243 Y53.774 E-.61758
;WIPE_END
G1 X153.931 Y56.716 F9000
G1 E5 F2400
;WIDTH:0.419999
G1 F1200
G1 X153.909 Y57.169 E.01422
G1 X153.711 Y57.758 E.01948
G1 X153.367 Y58.281 E.01963
G1 X152.991 Y58.603 E.01552
G1 X152.585 Y58.813 E.01433
G1 X152.142 Y58.929 E.01436
G1 X151.379 Y58.958 E.02394
G1 X150.687 Y58.824 E.0221
G1 X150.191 Y58.556 E.01768
G1 X149.965 Y58.302 E.01066
G1 X149.862 Y58.078 E.00773
G1 X149.812 Y57.81 E.00855
G1 X149.837 Y57.541 E.00847
G1 X149.941 Y57.306 E.00806
G1 X150.117 Y57.129 E.00783
G1 X150.403 Y57.003 E.0098
G1 X150.745 Y56.981 E.01075
G1 X151.053 Y57.058 E.00995
G1 X151.667 Y57.442 E.02271
G1 X151.891 Y57.42 E.00706
G1 X152.098 Y57.264 E.00813
G1 X152.216 Y57.05 E.00766
G1 X152.21 Y56.764 E.00897
G1 X152.09 Y56.501 E.00906
G1 X151.81 Y56.232 E.01217
G1 X150.774 Y55.903 E.03408
G1 X150.534 Y55.596 E.01222
G1 X150.5 Y55.21 E.01215
G1 X150.58 Y54.938 E.00889
;WIDTH:0.449052
G1 X150.727 Y54.745 E.00819
;WIDTH:0.478105
G1 X150.874 Y54.551 E.00881
;WIDTH:0.519481
G1 X151.219 Y54.432 E.01446
;WIDTH:0.560857
G1 X151.564 Y54.313 E.01572
;WIDTH:0.561528
G1 X151.764 Y54.205 E.0098
G1 X151.864 Y54.002 E.00976
G1 X151.778 Y53.799 E.00951
G1 X151.562 Y53.769 E.0094
G1 X151.256 Y53.913 E.01458
;WIDTH:0.516737
G1 X150.949 Y54.057 E.01336
;WIDTH:0.471945
G1 X150.692 Y54.15 E.00975
;WIDTH:0.471036
G1 X150.48 Y54.094 E.00781
;WIDTH:0.445518
G1 X150.268 Y54.039 E.00733
;WIDTH:0.419999
G1 X150.054 Y53.862 E.00871
G1 X149.902 Y53.634 E.00859
;WIDTH:0.436253
G1 X149.812 Y53.385 E.00866
;WIDTH:0.439444
G1 X149.82 Y53.117 E.00884
G1 X149.911 Y52.904 E.00764
;WIDTH:0.422063
G1 X150.29 Y52.528 E.01683
;WIDTH:0.419999
G1 X150.906 Y52.255 E.02113
G1 X151.514 Y52.165 E.01927
G1 X151.932 Y52.168 E.01311
G1 X152.52 Y52.266 E.01869
G1 X153.011 Y52.484 E.01684
G1 X153.392 Y52.83 E.01614
G1 X153.59 Y53.175 E.01247
G1 X153.679 Y53.505 E.01072
G1 X153.681 Y54.015 E.01599
G1 X153.56 Y54.534 E.01671
G1 X153.194 Y54.943 E.01721
G1 X152.879 Y55.11 E.01118
G1 X153.212 Y55.256 E.0114
G1 X153.573 Y55.577 E.01515
G1 X153.806 Y56.103 E.01804
G1 X153.925 Y56.657 E.01777
G1 E-3.5 F3600
;WIPE_START
G1 F7200
G1 X153.931 Y56.716 E-.02817
G1 X153.909 Y57.169 E-.21543
G1 X153.711 Y57.758 E-.29516
G1 X153.367 Y58.281 E-.29735
G1 X152.991 Y58.603 E-.23514
G1 X152.585 Y58.813 E-.21712
G1 X152.154 Y58.926 E-.21163
;WIPE_END
G1 X149.257 Y53.54 F9000
G1 E5 F2400
;WIDTH:0.422933
G1 F1200
G1 X149.189 Y53.648 E.00403
;WIDTH:0.419999
G1 X148.931 Y53.82 E.00972
G1 X148.434 Y53.911 E.01584
G1 X147.474 Y53.912 E.0301
G1 X147.457 Y54.843 E.0292
G1 X147.47 Y57.954 E.09754
G1 X147.328 Y58.456 E.01636
G1 X147.125 Y58.675 E.00936
G1 X146.902 Y58.783 E.00777
G1 X146.576 Y58.815 E.01027
G1 X146.228 Y58.721 E.0113
G1 X145.981 Y58.506 E.01027
G1 X145.878 Y58.221 E.0095
G1 X145.907 Y57.528 E.02175
G1 X145.89 Y54.749 E.08714
G1 X145.923 Y54.222 E.01656
G1 X145.88 Y53.993 E.00731
G1 X145.651 Y53.897 E.00779
G1 X145.336 Y53.891 E.00988
G1 X144.832 Y53.952 E.01592
G1 X144.456 Y53.89 E.01195
G1 X144.194 Y53.685 E.01043
;WIDTH:0.45361
G1 X144.107 Y53.559 E.00523
;WIDTH:0.487221
G1 X144.02 Y53.433 E.00566
G1 X143.98 Y53.159 E.01023
;WIDTH:0.472083
G1 X144.049 Y52.922 E.00881
;WIDTH:0.446041
G1 X144.118 Y52.685 E.00827
;WIDTH:0.419999
G1 X144.4 Y52.398 E.01262
G1 X144.796 Y52.304 E.01276
G1 X145.404 Y52.346 E.01911
G1 X148.705 Y52.335 E.1035
G1 X149.092 Y52.458 E.01273
G1 X149.315 Y52.743 E.01135
;WIDTH:0.451209
G1 X149.393 Y53.169 E.0147
G1 X149.326 Y53.43 E.00915
;WIDTH:0.422933
G1 X149.289 Y53.489 E.0022
G1 E-3.5 F3600
;WIPE_START
G1 F7200
G1 X149.257 Y53.54 E-.0286
G1 X149.189 Y53.648 E-.06062
G1 X148.931 Y53.82 E-.14729
G1 X148.434 Y53.911 E-.24
G1 X147.474 Y53.912 E-.456
G1 X147.457 Y54.843 E-.4423
G1 X147.458 Y55.107 E-.12519
;WIPE_END
G1 X143.569 Y53.459 F9000
G1 E5 F2400
;WIDTH:0.473822
G1 F1200
G1 X143.57 Y53.645 E.00666
;WIDTH:0.460756
G1 X143.42 Y53.96 E.01212
;WIDTH:0.419999
G1 X143.193 Y54.176 E.00982
G1 X142.839 Y54.306 E.01182
G1 X142.617 Y54.288 E.00698
G1 X142.377 Y54.209 E.00792
G1 X141.617 Y53.803 E.02702
G1 X141.156 Y53.825 E.01447
G1 X140.832 Y53.972 E.01116
G1 X140.542 Y54.294 E.01359
G1 X140.365 Y54.772 E.01598
G1 X140.351 Y54.918 E.0046
G1 X140.29 Y55.522 E.01903
G1 X140.357 Y56.322 E.02517
G1 X140.543 Y56.839 E.01723
G1 X140.798 Y57.12 E.0119
G1 X141.143 Y57.303 E.01224
G1 X141.541 Y57.344 E.01255
G1 X141.922 Y57.27 E.01217
G1 X142.325 Y56.924 E.01665
G1 X142.728 Y56.831 E.01297
G1 X143.092 Y56.913 E.0117
G1 X143.365 Y57.085 E.01012
G1 X143.552 Y57.367 E.01061
G1 X143.581 Y57.715 E.01095
G1 X143.359 Y58.165 E.01573
G1 X143.144 Y58.412 E.01027
G1 X142.903 Y58.604 E.00966
G1 X142.604 Y58.764 E.01063
G1 X141.978 Y58.934 E.02034
G1 X141.136 Y58.944 E.0264
G1 X140.578 Y58.824 E.0179
G1 X139.909 Y58.489 E.02346
G1 X139.436 Y58.065 E.01992
G1 X139.076 Y57.537 E.02004
G1 X138.872 Y57.044 E.01673
;WIDTH:0.432968
G1 X138.739 Y56.466 E.01924
G1 X138.702 Y55.599 E.02814
;WIDTH:0.423253
G1 X138.72 Y54.891 E.0224
;WIDTH:0.471246
G1 X138.804 Y54.236 E.02352
G1 X138.913 Y53.968 E.0103
;WIDTH:0.445623
G1 X139.023 Y53.701 E.00967
;WIDTH:0.419999
