; generated by Slic3r 1.2.9 on 2017-03-06 at 22:34:08

; external perimeters extrusion width = 0.50mm
; perimeters extrusion width = 0.72mm
; infill extrusion width = 0.72mm
; solid infill extrusion width = 0.72mm
; top infill extrusion width = 0.72mm

M107
M104 S200 ; set temperature
G28 ; home all axes
G1 Z5 F5000 ; lift nozzle

M109 S200 ; wait for temperature to be reached
G21 ; set units to millimeters
G90 ; use absolute coordinates
M82 ; use absolute distances for extrusion
G92 E0
G1 Z0.350 F7800.000
G1 E-2.00000 F2400.00000
G92 E0
G1 X39.681 Y6.974 F7800.000
G1 E2.00000 F2400.00000
G1 X40.047 Y4.891 E2.06543 F1800.000
G1 X41.190 Y2.903 E2.13639
G1 X42.943 Y1.424 E2.20735
G1 X45.095 Y0.631 E2.27831
G1 X46.275 Y0.525 E2.31496
G1 X153.725 Y0.525 E5.63961
G1 X155.984 Y0.922 E5.71057
G1 X157.972 Y2.065 E5.78153 F1800.000
G1 X159.451 Y3.818 E5.85250
G1 X160.244 Y5.970 E5.92346
G1 X160.350 Y7.150 E5.96011
G1 X160.350 Y192.850 E11.70591
G1 X159.953 Y195.109 E11.77687
G1 X158.810 Y197.097 E11.84784
G1 X157.057 Y198.576 E11.91880
G1 X154.905 Y199.369 E11.98976
G1 X153.725 Y199.475 E12.02641
G1 X46.275 Y199.475 E15.35106
G1 X44.016 Y199.078 E15.42202
G1 X42.028 Y197.935 E15.49298
G1 X40.549 Y196.182 E15.56394
G1 X39.756 Y194.030 E15.63491
G1 X39.650 Y192.850 E15.67156
G1 X39.650 Y7.150 E21.41736
G1 X39.668 Y7.048 E21.42057
G1 E19.42057 F2400.00000
G92 E0
G1 X47.875 Y8.750 F7800.000
G1 E2.00000 F2400.00000
G1 X152.125 Y8.750 E5.22565 F1800.000
G1 X152.125 Y191.250 E10.87245
G1 X47.875 Y191.250 E14.09810
G1 X47.875 Y8.825 E19.74258
G1 X47.250 Y8.125 F7800.000
G1 X152.750 Y8.125 E23.00689 F1800.000
G1 X152.750 Y191.875 E28.69237
G1 X47.250 Y191.875 E31.95668
G1 X47.250 Y8.200 E37.63984
G1 X46.625 Y7.500 F7800.000
G1 X153.375 Y7.500 E40.94282 F1800.000
G1 X153.375 Y192.500 E46.66696
G1 X46.625 Y192.500 E49.96995
G1 X46.625 Y7.575 E55.69177
G1 X47.058 Y7.750 F7800.000
G1 X151.747 Y9.433 F7800.000
G1 X151.442 Y9.128 E55.70513 F1800.000
G1 X150.558 Y9.128 E55.73248
G1 X151.747 Y10.317 E55.78453
G1 X151.747 Y11.201 E55.81188
G1 X149.674 Y9.128 E55.90261
G1 X148.790 Y9.128 E55.92997
G1 X151.747 Y12.085 E56.05939
G1 X151.747 Y12.969 E56.08674
G1 X147.906 Y9.128 E56.25485
G1 X147.022 Y9.128 E56.28221
G1 X151.747 Y13.853 E56.48900
G1 X151.747 Y14.737 E56.51636
G1 X146.138 Y9.128 E56.76184
G1 X145.254 Y9.128 E56.78919
G1 X151.747 Y15.621 E57.07336
G1 X151.747 Y16.505 E57.10072
G1 X144.370 Y9.128 E57.42358
G1 X143.486 Y9.128 E57.45093
G1 X151.747 Y17.389 E57.81248
G1 X151.747 Y18.273 E57.83983
G1 X142.602 Y9.128 E58.24007
G1 X141.718 Y9.128 E58.26742
G1 X151.747 Y19.157 E58.70634
G1 X151.747 Y20.041 E58.73370
G1 X140.834 Y9.128 E59.21131
G1 X139.950 Y9.128 E59.23867
G1 X151.747 Y20.925 E59.75496
G1 X151.747 Y21.809 E59.78232
G1 X139.066 Y9.128 E60.33730
G1 X138.183 Y9.128 E60.36466
G1 X151.747 Y22.692 E60.95833
G1 X151.747 Y23.576 E60.98569
G1 X137.299 Y9.128 E61.61805
G1 X136.415 Y9.128 E61.64540
G1 X151.747 Y24.460 E62.31645
G1 X151.747 Y25.344 E62.34381
G1 X135.531 Y9.128 E63.05354
G1 X134.647 Y9.128 E63.08090
G1 X151.747 Y26.228 E63.82932
G1 X151.747 Y27.112 E63.85668
G1 X133.763 Y9.128 E64.64379
G1 X132.879 Y9.128 E64.67115
G1 X151.747 Y27.996 E65.49695
G1 X151.747 Y28.880 E65.52431
G1 X131.995 Y9.128 E66.38879
G1 X131.111 Y9.128 E66.41615
G1 X151.747 Y29.764 E67.31932
G1 X151.747 Y30.648 E67.34668
G1 X130.227 Y9.128 E68.28854
G1 X129.343 Y9.128 E68.31590
G1 X151.747 Y31.532 E69.29645
G1 X151.747 Y32.416 E69.32381
G1 X128.459 Y9.128 E70.34305
G1 X127.575 Y9.128 E70.37040
G1 X151.747 Y33.300 E71.42833
G1 X151.747 Y34.184 E71.45568
G1 X126.691 Y9.128 E72.55230
G1 X125.807 Y9.128 E72.57966
G1 X151.747 Y35.068 E73.71496
G1 X151.747 Y35.951 E73.74231
G1 X124.924 Y9.128 E74.91630
G1 X124.040 Y9.128 E74.94366
G1 X151.747 Y36.835 E76.15634
G1 X151.747 Y37.719 E76.18369
G1 X123.156 Y9.128 E77.43506
G1 X122.272 Y9.128 E77.46242
G1 X151.747 Y38.603 E78.75247
G1 X151.747 Y39.487 E78.77983
G1 X121.388 Y9.128 E80.10857
G1 X120.504 Y9.128 E80.13592
G1 X151.747 Y40.371 E81.50335
G1 X151.747 Y41.255 E81.53071
G1 X119.620 Y9.128 E82.93683
G1 X118.736 Y9.128 E82.96418
G1 X151.747 Y42.139 E84.40899
G1 X151.747 Y43.023 E84.43634
G1 X117.852 Y9.128 E85.91984
G1 X116.968 Y9.128 E85.94719
G1 X151.747 Y43.907 E87.46937
G1 X151.747 Y44.791 E87.49673
G1 X116.084 Y9.128 E89.05760
G1 X115.200 Y9.128 E89.08496
G1 X151.747 Y45.675 E90.68451
G1 X151.747 Y46.559 E90.71187
G1 X114.316 Y9.128 E92.35011
G1 X113.432 Y9.128 E92.37747
G1 X151.747 Y47.443 E94.05440
G1 X151.747 Y48.327 E94.08176
G1 X112.548 Y9.128 E95.79738
G1 X111.665 Y9.128 E95.82473
G1 X151.747 Y49.210 E97.57904
G1 X151.747 Y50.094 E97.60640
G1 X110.781 Y9.128 E99.39939
G1 X109.897 Y9.128 E99.42675
G1 X151.747 Y50.978 E101.25843
G1 X151.747 Y51.862 E101.28579
G1 X109.013 Y9.128 E103.15616
G1 X108.129 Y9.128 E103.18352
G1 X151.747 Y52.746 E105.09258
G1 X151.747 Y53.630 E105.11993
G1 X107.245 Y9.128 E107.06768
G1 X106.361 Y9.128 E107.09504
G1 X151.747 Y54.514 E109.08147
G1 X151.747 Y55.398 E109.10883
G1 X105.477 Y9.128 E111.13395
G1 X104.593 Y9.128 E111.16131
G1 X151.747 Y56.282 E113.22512
G1 X151.747 Y57.166 E113.25247
G1 X103.709 Y9.128 E115.35497
G1 X102.825 Y9.128 E115.38233
G1 X151.747 Y58.050 E117.52352
G1 X151.747 Y58.934 E117.55087
G1 X101.941 Y9.128 E119.73075
G1 X101.057 Y9.128 E119.75810
G1 X151.747 Y59.818 E121.97666
G1 X151.747 Y60.702 E122.00402
G1 X100.173 Y9.128 E124.26127
G1 X99.289 Y9.128 E124.28863
G1 X151.747 Y61.586 E126.58456
G1 X151.747 Y62.469 E126.61192
G1 X98.406 Y9.128 E128.94655
G1 X97.522 Y9.128 E128.97390
G1 X151.747 Y63.353 E131.34722
G1 X151.747 Y64.237 E131.37457
G1 X96.638 Y9.128 E133.78657
G1 X95.754 Y9.128 E133.81393
G1 X151.747 Y65.121 E136.26462
G1 X151.747 Y66.005 E136.29198
G1 X94.870 Y9.128 E138.78135
G1 X93.986 Y9.128 E138.80871
G1 X151.747 Y66.889 E141.33677
G1 X151.747 Y67.773 E141.36413
G1 X93.102 Y9.128 E143.93088
G1 X92.218 Y9.128 E143.95824
G1 X151.747 Y68.657 E146.56368
G1 X151.747 Y69.541 E146.59104
G1 X91.334 Y9.128 E149.23517
G1 X90.450 Y9.128 E149.26252
G1 X151.747 Y70.425 E151.94534
G1 X151.747 Y71.309 E151.97269
G1 X89.566 Y9.128 E154.69420
G1 X88.682 Y9.128 E154.72155
G1 X151.747 Y72.193 E157.48175
G1 X151.747 Y73.077 E157.50910
G1 X87.798 Y9.128 E160.30798
G1 X86.914 Y9.128 E160.33534
G1 X151.747 Y73.961 E163.17291
G1 X151.747 Y74.845 E163.20026
G1 X86.030 Y9.128 E166.07652
G1 X85.147 Y9.128 E166.10388
G1 X151.747 Y75.728 E169.01882
G1 X151.747 Y76.612 E169.04617
G1 X84.263 Y9.128 E171.99981
G1 X83.379 Y9.128 E172.02716
G1 X151.747 Y77.496 E175.01948
G1 X151.747 Y78.380 E175.04684
G1 X82.495 Y9.128 E178.07784
G1 X81.611 Y9.128 E178.10520
G1 X151.747 Y79.264 E181.17490
G1 X151.747 Y80.148 E181.20225
G1 X80.727 Y9.128 E184.31063
G1 X79.843 Y9.128 E184.33799
G1 X151.747 Y81.032 E187.48506
G1 X151.747 Y81.916 E187.51242
G1 X78.959 Y9.128 E190.69818
G1 X78.075 Y9.128 E190.72553
G1 X151.747 Y82.800 E193.94998
G1 X151.747 Y83.684 E193.97734
G1 X77.191 Y9.128 E197.24047
G1 X76.307 Y9.128 E197.26783
G1 X151.747 Y84.568 E200.56965
G1 X151.747 Y85.452 E200.59700
G1 X75.423 Y9.128 E203.93751
G1 X74.539 Y9.128 E203.96487
G1 X151.747 Y86.336 E207.34407
G1 X151.747 Y87.220 E207.37142
G1 X73.655 Y9.128 E210.78931
G1 X72.771 Y9.128 E210.81667
G1 X151.747 Y88.104 E214.27324
G1 X151.747 Y88.987 E214.30060
G1 X71.888 Y9.128 E217.79586
G1 X71.004 Y9.128 E217.82321
G1 X151.747 Y89.871 E221.35716
G1 X151.747 Y90.755 E221.38452
G1 X70.120 Y9.128 E224.95716
G1 X69.236 Y9.128 E224.98451
G1 X151.747 Y91.639 E228.59584
G1 X151.747 Y92.523 E228.62319
G1 X68.352 Y9.128 E232.27321
G1 X67.468 Y9.128 E232.30056
G1 X151.747 Y93.407 E235.98926
G1 X151.747 Y94.291 E236.01662
G1 X66.584 Y9.128 E239.74401
G1 X65.700 Y9.128 E239.77136
G1 X151.747 Y95.175 E243.53744
G1 X151.747 Y96.059 E243.56480
G1 X64.816 Y9.128 E247.36956
G1 X63.932 Y9.128 E247.39692
G1 X151.747 Y96.943 E251.24037
G1 X151.747 Y97.827 E251.26772
G1 X63.048 Y9.128 E255.14986
G1 X62.164 Y9.128 E255.17722
G1 X151.747 Y98.711 E259.09805
G1 X151.747 Y99.595 E259.12540
G1 X61.280 Y9.128 E263.08492
G1 X60.396 Y9.128 E263.11228
G1 X151.747 Y100.479 E267.11048
G1 X151.747 Y101.363 E267.13784
G1 X59.512 Y9.128 E271.17473
G1 X58.629 Y9.128 E271.20208
G1 X151.747 Y102.246 E275.27766
G1 X151.747 Y103.130 E275.30502
G1 X57.745 Y9.128 E279.41928
G1 X56.861 Y9.128 E279.44664
G1 X151.747 Y104.014 E283.59960
G1 X151.747 Y104.898 E283.62695
G1 X55.977 Y9.128 E287.81859
G1 X55.093 Y9.128 E287.84595
G1 X151.747 Y105.782 E292.07628
G1 X151.747 Y106.666 E292.10364
G1 X54.209 Y9.128 E296.37266
G1 X53.325 Y9.128 E296.40001
G1 X151.747 Y107.550 E300.70772
G1 X151.747 Y108.434 E300.73508
G1 X52.441 Y9.128 E305.08147
G1 X51.557 Y9.128 E305.10883
G1 X151.747 Y109.318 E309.49391
G1 X151.747 Y110.202 E309.52126
G1 X50.673 Y9.128 E313.94503
G1 X49.789 Y9.128 E313.97239
G1 X151.747 Y111.086 E318.43485
G1 X151.747 Y111.970 E318.46220
G1 X48.905 Y9.128 E322.96335
G1 X48.253 Y9.360 E322.98476
G1 X151.747 Y112.854 E327.51444
G1 X151.747 Y113.738 E327.54180
G1 X48.253 Y10.244 E332.07148
G1 X48.253 Y11.128 E332.09883
G1 X151.747 Y114.622 E336.62851
G1 X151.747 Y115.505 E336.65587
G1 X48.253 Y12.012 E341.18554
G1 X48.253 Y12.896 E341.21290
G1 X151.747 Y116.389 E345.74258
G1 X151.747 Y117.273 E345.76993
G1 X48.253 Y13.780 E350.29961
G1 X48.253 Y14.664 E350.32697
G1 X151.747 Y118.157 E354.85665
G1 X151.747 Y119.041 E354.88400
G1 X48.253 Y15.548 E359.41368
G1 X48.253 Y16.432 E359.44104
G1 X151.747 Y119.925 E363.97071
G1 X151.747 Y120.809 E363.99807
G1 X48.253 Y17.316 E368.52775
G1 X48.253 Y18.200 E368.55510
G1 X151.747 Y121.693 E373.08478
G1 X151.747 Y122.577 E373.11214
G1 X48.253 Y19.084 E377.64182
G1 X48.253 Y19.968 E377.66917
G1 X151.747 Y123.461 E382.19885
G1 X151.747 Y124.345 E382.22621
G1 X48.253 Y20.852 E386.75588
G1 X48.253 Y21.735 E386.78324
G1 X151.747 Y125.229 E391.31292
G1 X151.747 Y126.113 E391.34027
G1 X48.253 Y22.619 E395.86995
G1 X48.253 Y23.503 E395.89731
G1 X151.747 Y126.997 E400.42699
G1 X151.747 Y127.881 E400.45434
G1 X48.253 Y24.387 E404.98402
G1 X48.253 Y25.271 E405.01138
G1 X151.747 Y128.764 E409.54105
G1 X151.747 Y129.648 E409.56841
G1 X48.253 Y26.155 E414.09809
G1 X48.253 Y27.039 E414.12544
G1 X151.747 Y130.532 E418.65512
G1 X151.747 Y131.416 E418.68248
G1 X48.253 Y27.923 E423.21216
G1 X48.253 Y28.807 E423.23951
G1 X151.747 Y132.300 E427.76919
G1 X151.747 Y133.184 E427.79655
G1 X48.253 Y29.691 E432.32622
G1 X48.253 Y30.575 E432.35358
G1 X151.747 Y134.068 E436.88326
G1 X151.747 Y134.952 E436.91061
G1 X48.253 Y31.459 E441.44029
G1 X48.253 Y32.343 E441.46765
G1 X151.747 Y135.836 E445.99733
G1 X151.747 Y136.720 E446.02468
G1 X48.253 Y33.227 E450.55436
G1 X48.253 Y34.111 E450.58172
G1 X151.747 Y137.604 E455.11139
G1 X151.747 Y138.488 E455.13875
G1 X48.253 Y34.994 E459.66843
G1 X48.253 Y35.878 E459.69579
G1 X151.747 Y139.372 E464.22546
G1 X151.747 Y140.256 E464.25282
G1 X48.253 Y36.762 E468.78250
G1 X48.253 Y37.646 E468.80985
G1 X151.747 Y141.140 E473.33953
G1 X151.747 Y142.023 E473.36689
G1 X48.253 Y38.530 E477.89657
G1 X48.253 Y39.414 E477.92392
G1 X151.747 Y142.907 E482.45360
G1 X151.747 Y143.791 E482.48096
G1 X48.253 Y40.298 E487.01063
G1 X48.253 Y41.182 E487.03799
G1 X151.747 Y144.675 E491.56767
G1 X151.747 Y145.559 E491.59502
G1 X48.253 Y42.066 E496.12470
G1 X48.253 Y42.950 E496.15206
G1 X151.747 Y146.443 E500.68174
G1 X151.747 Y147.327 E500.70909
G1 X48.253 Y43.834 E505.23877
G1 X48.253 Y44.718 E505.26613
G1 X151.747 Y148.211 E509.79580
G1 X151.747 Y149.095 E509.82316
G1 X48.253 Y45.602 E514.35284
G1 X48.253 Y46.486 E514.38019
G1 X151.747 Y149.979 E518.90987
G1 X151.747 Y150.863 E518.93723
G1 X48.253 Y47.370 E523.46691
G1 X48.253 Y48.253 E523.49426
G1 X151.747 Y151.747 E528.02394
G1 X151.747 Y152.631 E528.05130
G1 X48.253 Y49.137 E532.58097
G1 X48.253 Y50.021 E532.60833
G1 X151.747 Y153.515 E537.13801
G1 X151.747 Y154.399 E537.16536
G1 X48.253 Y50.905 E541.69504
G1 X48.253 Y51.789 E541.72240
G1 X151.747 Y155.282 E546.25208
G1 X151.747 Y156.166 E546.27943
G1 X48.253 Y52.673 E550.80911
G1 X48.253 Y53.557 E550.83647
G1 X151.747 Y157.050 E555.36615
G1 X151.747 Y157.934 E555.39350
G1 X48.253 Y54.441 E559.92318
G1 X48.253 Y55.325 E559.95054
G1 X151.747 Y158.818 E564.48021
G1 X151.747 Y159.702 E564.50757
G1 X48.253 Y56.209 E569.03725
G1 X48.253 Y57.093 E569.06460
G1 X151.747 Y160.586 E573.59428
G1 X151.747 Y161.470 E573.62164
G1 X48.253 Y57.977 E578.15132
G1 X48.253 Y58.861 E578.17867
G1 X151.747 Y162.354 E582.70835
G1 X151.747 Y163.238 E582.73571
G1 X48.253 Y59.745 E587.26538
G1 X48.253 Y60.629 E587.29274
G1 X151.747 Y164.122 E591.82242
G1 X151.747 Y165.006 E591.84977
G1 X48.253 Y61.512 E596.37945
G1 X48.253 Y62.396 E596.40681
G1 X151.747 Y165.890 E600.93649
G1 X151.747 Y166.774 E600.96384
G1 X48.253 Y63.280 E605.49352
G1 X48.253 Y64.164 E605.52088
G1 X151.747 Y167.658 E610.05056
G1 X151.747 Y168.541 E610.07791
G1 X48.253 Y65.048 E614.60759
G1 X48.253 Y65.932 E614.63495
G1 X151.747 Y169.425 E619.16462
G1 X151.747 Y170.309 E619.19198
G1 X48.253 Y66.816 E623.72166
G1 X48.253 Y67.700 E623.74901
G1 X151.747 Y171.193 E628.27869
G1 X151.747 Y172.077 E628.30605
G1 X48.253 Y68.584 E632.83573
G1 X48.253 Y69.468 E632.86308
G1 X151.747 Y172.961 E637.39276
G1 X151.747 Y173.845 E637.42012
G1 X48.253 Y70.352 E641.94979
G1 X48.253 Y71.236 E641.97715
G1 X151.747 Y174.729 E646.50683
G1 X151.747 Y175.613 E646.53419
G1 X48.253 Y72.120 E651.06386
G1 X48.253 Y73.004 E651.09122
G1 X151.747 Y176.497 E655.62090
G1 X151.747 Y177.381 E655.64825
G1 X48.253 Y73.888 E660.17793
G1 X48.253 Y74.771 E660.20529
G1 X151.747 Y178.265 E664.73497
G1 X151.747 Y179.149 E664.76232
G1 X48.253 Y75.655 E669.29200
G1 X48.253 Y76.539 E669.31936
G1 X151.747 Y180.033 E673.84903
G1 X151.747 Y180.917 E673.87639
G1 X48.253 Y77.423 E678.40607
G1 X48.253 Y78.307 E678.43343
G1 X151.747 Y181.800 E682.96310
G1 X151.747 Y182.684 E682.99046
G1 X48.253 Y79.191 E687.52014
G1 X48.253 Y80.075 E687.54749
G1 X151.747 Y183.568 E692.07717
G1 X151.747 Y184.452 E692.10453
G1 X48.253 Y80.959 E696.63421
G1 X48.253 Y81.843 E696.66156
G1 X151.747 Y185.336 E701.19124
G1 X151.747 Y186.220 E701.21860
G1 X48.253 Y82.727 E705.74827
G1 X48.253 Y83.611 E705.77563
G1 X151.747 Y187.104 E710.30531
G1 X151.747 Y187.988 E710.33266
G1 X48.253 Y84.495 E714.86234
G1 X48.253 Y85.379 E714.88970
G1 X151.747 Y188.872 E719.41938
G1 X151.747 Y189.756 E719.44673
G1 X48.253 Y86.263 E723.97641
G1 X48.253 Y87.147 E724.00377
G1 X151.747 Y190.640 E728.53345
G1 X151.095 Y190.872 E728.55486
G1 X48.253 Y88.030 E733.05600
G1 X48.253 Y88.914 E733.08336
G1 X150.211 Y190.872 E737.54581
G1 X149.327 Y190.872 E737.57316
G1 X48.253 Y89.798 E741.99693
G1 X48.253 Y90.682 E742.02428
G1 X148.443 Y190.872 E746.40936
G1 X147.559 Y190.872 E746.43671
G1 X48.253 Y91.566 E750.78310
G1 X48.253 Y92.450 E750.81045
G1 X146.675 Y190.872 E755.11815
G1 X145.791 Y190.872 E755.14551
G1 X48.253 Y93.334 E759.41452
G1 X48.253 Y94.218 E759.44188
G1 X144.907 Y190.872 E763.67220
G1 X144.023 Y190.872 E763.69955
G1 X48.253 Y95.102 E767.89119
G1 X48.253 Y95.986 E767.91855
G1 X143.139 Y190.872 E772.07149
G1 X142.255 Y190.872 E772.09885
G1 X48.253 Y96.870 E776.21311
G1 X48.253 Y97.754 E776.24046
G1 X141.371 Y190.872 E780.31604
G1 X140.487 Y190.872 E780.34339
G1 X48.253 Y98.638 E784.38028
G1 X48.253 Y99.522 E784.40763
G1 X139.603 Y190.872 E788.40583
G1 X138.719 Y190.872 E788.43318
G1 X48.253 Y100.406 E792.39269
G1 X48.253 Y101.289 E792.42005
G1 X137.836 Y190.872 E796.34087
G1 X136.952 Y190.872 E796.36822
G1 X48.253 Y102.173 E800.25036
G1 X48.253 Y103.057 E800.27771
G1 X136.068 Y190.872 E804.12116
G1 X135.184 Y190.872 E804.14851
G1 X48.253 Y103.941 E807.95327
G1 X48.253 Y104.825 E807.98062
G1 X134.300 Y190.872 E811.74669
G1 X133.416 Y190.872 E811.77405
G1 X48.253 Y105.709 E815.50143
G1 X48.253 Y106.593 E815.52879
G1 X132.532 Y190.872 E819.21748
G1 X131.648 Y190.872 E819.24483
G1 X48.253 Y107.477 E822.89484
G1 X48.253 Y108.361 E822.92220
G1 X130.764 Y190.872 E826.53351
G1 X129.880 Y190.872 E826.56087
G1 X48.253 Y109.245 E830.13350
