; generated by Slic3r 1.2.9 on 2017-03-06 at 22:42:10

; external perimeters extrusion width = 0.50mm
; perimeters extrusion width = 0.72mm
; infill extrusion width = 0.72mm
; solid infill extrusion width = 0.72mm
; top infill extrusion width = 0.72mm

M107
M104 S200 ; set temperature
G28 ; home all axes
G1 Z5 F5000 ; lift nozzle

M109 S200 ; wait for temperature to be reached
G21 ; set units to millimeters
G90 ; use absolute coordinates
M82 ; use absolute distances for extrusion
G92 E0
G1 Z0.350 F7800.000
G1 E-2.00000 F2400.00000
G92 E0
G1 X40.047 Y9.891 F7800.000
G1 E2.00000 F2400.00000
G1 X41.190 Y7.903 E2.07096 F1800.000
G1 X42.943 Y6.424 E2.14192
G1 X45.095 Y5.631 E2.21289
G1 X46.275 Y5.525 E2.24954
G1 X153.725 Y5.525 E5.57418
G1 X155.984 Y5.922 E5.64514
G1 X157.972 Y7.065 E5.71611 F1800.000
G1 X159.451 Y8.818 E5.78707
G1 X160.244 Y10.970 E5.85803
G1 X160.350 Y12.150 E5.89468
G1 X160.350 Y187.850 E11.33107
G1 X159.953 Y190.109 E11.40203
G1 X158.810 Y192.097 E11.47300
G1 X157.057 Y193.576 E11.54396
G1 X154.905 Y194.369 E11.61492
G1 X153.725 Y194.475 E11.65157
G1 X46.275 Y194.475 E14.97622
G1 X44.016 Y194.078 E15.04718
G1 X42.028 Y192.935 E15.11814
G1 X40.549 Y191.182 E15.18910
G1 X39.756 Y189.030 E15.26007
G1 X39.650 Y187.850 E15.29672
G1 X39.650 Y12.150 E20.73311
G1 X40.034 Y9.965 E20.80175
G1 E18.80175 F2400.00000
G92 E0
G1 X47.875 Y13.750 F7800.000
G1 E2.00000 F2400.00000
G1 X152.125 Y13.750 E5.22565 F1800.000
G1 X152.125 Y186.250 E10.56304
G1 X47.875 Y186.250 E13.78868
G1 X47.875 Y13.825 E19.12375
G1 X47.250 Y13.125 F7800.000
G1 X152.750 Y13.125 E22.38807 F1800.000
G1 X152.750 Y186.875 E27.76413
G1 X47.250 Y186.875 E31.02844
G1 X47.250 Y13.200 E36.40218
G1 X46.625 Y12.500 F7800.000
G1 X153.375 Y12.500 E39.70517 F1800.000
G1 X153.375 Y187.500 E45.11990
G1 X46.625 Y187.500 E48.42288
G1 X46.625 Y12.575 E53.83529
G1 X47.058 Y12.750 F7800.000
G1 X151.747 Y14.433 F7800.000
G1 X151.442 Y14.128 E53.84868 F1800.000
G1 X150.556 Y14.128 E53.87616
G1 X151.747 Y15.319 E53.92840
G1 X151.747 Y16.205 E53.95588
G1 X149.670 Y14.128 E54.04698
G1 X148.784 Y14.128 E54.07446
G1 X151.747 Y17.091 E54.20442
G1 X151.747 Y17.977 E54.23190
G1 X147.898 Y14.128 E54.40072
G1 X147.012 Y14.128 E54.42820
G1 X151.747 Y18.863 E54.63588
G1 X151.747 Y19.749 E54.66336
G1 X146.126 Y14.128 E54.90990
G1 X145.240 Y14.128 E54.93738
G1 X151.747 Y20.635 E55.22278
G1 X151.747 Y21.521 E55.25025
G1 X144.354 Y14.128 E55.57451
G1 X143.469 Y14.128 E55.60199
G1 X151.747 Y22.406 E55.96511
G1 X151.747 Y23.292 E55.99259
G1 X142.583 Y14.128 E56.39457
G1 X141.697 Y14.128 E56.42205
G1 X151.747 Y24.178 E56.86288
G1 X151.747 Y25.064 E56.89036
G1 X140.811 Y14.128 E57.37006
G1 X139.925 Y14.128 E57.39754
G1 X151.747 Y25.950 E57.91610
G1 X151.747 Y26.836 E57.94357
G1 X139.039 Y14.128 E58.50099
G1 X138.153 Y14.128 E58.52847
G1 X151.747 Y27.722 E59.12474
G1 X151.747 Y28.608 E59.15222
G1 X137.267 Y14.128 E59.78736
G1 X136.381 Y14.128 E59.81484
G1 X151.747 Y29.494 E60.48883
G1 X151.747 Y30.380 E60.51631
G1 X135.495 Y14.128 E61.22916
G1 X134.610 Y14.128 E61.25664
G1 X151.747 Y31.265 E62.00836
G1 X151.747 Y32.151 E62.03583
G1 X133.724 Y14.128 E62.82641
G1 X132.838 Y14.128 E62.85389
G1 X151.747 Y33.037 E63.68332
G1 X151.747 Y33.923 E63.71080
G1 X131.952 Y14.128 E64.57909
G1 X131.066 Y14.128 E64.60657
G1 X151.747 Y34.809 E65.51372
G1 X151.747 Y35.695 E65.54120
G1 X130.180 Y14.128 E66.48721
G1 X129.294 Y14.128 E66.51469
G1 X151.747 Y36.581 E67.49956
G1 X151.747 Y37.467 E67.52704
G1 X128.408 Y14.128 E68.55077
G1 X127.522 Y14.128 E68.57825
G1 X151.747 Y38.353 E69.64084
G1 X151.747 Y39.238 E69.66831
G1 X126.637 Y14.128 E70.76976
G1 X125.751 Y14.128 E70.79724
G1 X151.747 Y40.124 E71.93755
G1 X151.747 Y41.010 E71.96503
G1 X124.865 Y14.128 E73.14420
G1 X123.979 Y14.128 E73.17168
G1 X151.747 Y41.896 E74.38971
G1 X151.747 Y42.782 E74.41718
G1 X123.093 Y14.128 E75.67407
G1 X122.207 Y14.128 E75.70155
G1 X151.747 Y43.668 E76.99730
G1 X151.747 Y44.554 E77.02477
G1 X121.321 Y14.128 E78.35938
G1 X120.435 Y14.128 E78.38686
G1 X151.747 Y45.440 E79.76033
G1 X151.747 Y46.326 E79.78780
G1 X119.549 Y14.128 E81.20013
G1 X118.664 Y14.128 E81.22761
G1 X151.747 Y47.211 E82.67879
G1 X151.747 Y48.097 E82.70627
G1 X117.778 Y14.128 E84.19631
G1 X116.892 Y14.128 E84.22379
G1 X151.747 Y48.983 E85.75270
G1 X151.747 Y49.869 E85.78017
G1 X116.006 Y14.128 E87.34794
G1 X115.120 Y14.128 E87.37542
G1 X151.747 Y50.755 E88.98204
G1 X151.747 Y51.641 E89.00952
G1 X114.234 Y14.128 E90.65500
G1 X113.348 Y14.128 E90.68248
G1 X151.747 Y52.527 E92.36682
G1 X151.747 Y53.413 E92.39430
G1 X112.462 Y14.128 E94.11750
G1 X111.576 Y14.128 E94.14498
G1 X151.747 Y54.299 E95.90704
G1 X151.747 Y55.185 E95.93452
G1 X110.690 Y14.128 E97.73544
G1 X109.805 Y14.128 E97.76292
G1 X151.747 Y56.070 E99.60270
G1 X151.747 Y56.956 E99.63018
G1 X108.919 Y14.128 E101.50881
G1 X108.033 Y14.128 E101.53629
G1 X151.747 Y57.842 E103.45379
G1 X151.747 Y58.728 E103.48127
G1 X107.147 Y14.128 E105.43763
G1 X106.261 Y14.128 E105.46511
G1 X151.747 Y59.614 E107.46033
G1 X151.747 Y60.500 E107.48780
G1 X105.375 Y14.128 E109.52188
G1 X104.489 Y14.128 E109.54936
G1 X151.747 Y61.386 E111.62230
G1 X151.747 Y62.272 E111.64977
G1 X103.603 Y14.128 E113.76157
G1 X102.717 Y14.128 E113.78905
G1 X151.747 Y63.158 E115.93971
G1 X151.747 Y64.043 E115.96718
G1 X101.832 Y14.128 E118.15670
G1 X100.946 Y14.128 E118.18418
G1 X151.747 Y64.929 E120.41255
G1 X151.747 Y65.815 E120.44003
G1 X100.060 Y14.128 E122.70727
G1 X99.174 Y14.128 E122.73474
G1 X151.747 Y66.701 E125.04084
G1 X151.747 Y67.587 E125.06832
G1 X98.288 Y14.128 E127.41327
G1 X97.402 Y14.128 E127.44075
G1 X151.747 Y68.473 E129.82456
G1 X151.747 Y69.359 E129.85204
G1 X96.516 Y14.128 E132.27471
G1 X95.630 Y14.128 E132.30219
G1 X151.747 Y70.245 E134.76372
G1 X151.747 Y71.131 E134.79120
G1 X94.744 Y14.128 E137.29159
G1 X93.859 Y14.128 E137.31907
G1 X151.747 Y72.016 E139.85832
G1 X151.747 Y72.902 E139.88580
G1 X92.973 Y14.128 E142.46391
G1 X92.087 Y14.128 E142.49139
G1 X151.747 Y73.788 E145.10836
G1 X151.747 Y74.674 E145.13584
G1 X91.201 Y14.128 E147.79167
G1 X90.315 Y14.128 E147.81914
G1 X151.747 Y75.560 E150.51383
G1 X151.747 Y76.446 E150.54131
G1 X89.429 Y14.128 E153.27486
G1 X88.543 Y14.128 E153.30234
G1 X151.747 Y77.332 E156.07475
G1 X151.747 Y78.218 E156.10222
G1 X87.657 Y14.128 E158.91349
G1 X86.771 Y14.128 E158.94097
G1 X151.747 Y79.104 E161.79110
G1 X151.747 Y79.989 E161.81857
G1 X85.886 Y14.128 E164.70756
G1 X85.000 Y14.128 E164.73504
G1 X151.747 Y80.875 E167.66289
G1 X151.747 Y81.761 E167.69036
G1 X84.114 Y14.128 E170.65707
G1 X83.228 Y14.128 E170.68455
G1 X151.747 Y82.647 E173.69011
G1 X151.747 Y83.533 E173.71759
G1 X82.342 Y14.128 E176.76202
G1 X81.456 Y14.128 E176.78949
G1 X151.747 Y84.419 E179.87278
G1 X151.747 Y85.305 E179.90026
G1 X80.570 Y14.128 E183.02240
G1 X79.684 Y14.128 E183.04988
G1 X151.747 Y86.191 E186.21088
G1 X151.747 Y87.077 E186.23836
G1 X78.798 Y14.128 E189.43822
G1 X77.912 Y14.128 E189.46570
G1 X151.747 Y87.963 E192.70442
G1 X151.747 Y88.848 E192.73190
G1 X77.027 Y14.128 E196.00948
G1 X76.141 Y14.128 E196.03696
G1 X151.747 Y89.734 E199.35340
G1 X151.747 Y90.620 E199.38088
G1 X75.255 Y14.128 E202.73618
G1 X74.369 Y14.128 E202.76366
G1 X151.747 Y91.506 E206.15782
G1 X151.747 Y92.392 E206.18530
G1 X73.483 Y14.128 E209.61832
G1 X72.597 Y14.128 E209.64579
G1 X151.747 Y93.278 E213.11767
G1 X151.747 Y94.164 E213.14515
G1 X71.711 Y14.128 E216.65589
G1 X70.825 Y14.128 E216.68337
G1 X151.747 Y95.050 E220.23297
G1 X151.747 Y95.936 E220.26044
G1 X69.939 Y14.128 E223.84890
G1 X69.054 Y14.128 E223.87638
G1 X151.747 Y96.821 E227.50370
G1 X151.747 Y97.707 E227.53117
G1 X68.168 Y14.128 E231.19735
G1 X67.282 Y14.128 E231.22483
G1 X151.747 Y98.593 E234.92987
G1 X151.747 Y99.479 E234.95734
G1 X66.396 Y14.128 E238.70124
G1 X65.510 Y14.128 E238.72872
G1 X151.747 Y100.365 E242.51147
G1 X151.747 Y101.251 E242.53895
G1 X64.624 Y14.128 E246.36057
G1 X63.738 Y14.128 E246.38804
G1 X151.747 Y102.137 E250.24852
G1 X151.747 Y103.023 E250.27600
G1 X62.852 Y14.128 E254.17533
G1 X61.966 Y14.128 E254.20281
G1 X151.747 Y103.909 E258.14100
G1 X151.747 Y104.794 E258.16848
G1 X61.081 Y14.128 E262.14553
G1 X60.195 Y14.128 E262.17301
G1 X151.747 Y105.680 E266.18892
G1 X151.747 Y106.566 E266.21640
G1 X59.309 Y14.128 E270.27117
G1 X58.423 Y14.128 E270.29865
G1 X151.747 Y107.452 E274.39228
G1 X151.747 Y108.338 E274.41976
G1 X57.537 Y14.128 E278.55225
G1 X56.651 Y14.128 E278.57973
G1 X151.747 Y109.224 E282.75108
G1 X151.747 Y110.110 E282.77856
G1 X55.765 Y14.128 E286.98877
G1 X54.879 Y14.128 E287.01624
G1 X151.747 Y110.996 E291.26531
G1 X151.747 Y111.882 E291.29279
G1 X53.993 Y14.128 E295.58072
G1 X53.108 Y14.128 E295.60820
G1 X151.747 Y112.767 E299.93499
G1 X151.747 Y113.653 E299.96246
G1 X52.222 Y14.128 E304.32811
G1 X51.336 Y14.128 E304.35559
G1 X151.747 Y114.539 E308.76010
G1 X151.747 Y115.425 E308.78757
G1 X50.450 Y14.128 E313.23094
G1 X49.564 Y14.128 E313.25842
G1 X151.747 Y116.311 E317.74065
G1 X151.747 Y117.197 E317.76812
G1 X48.678 Y14.128 E322.28921
G1 X48.253 Y14.590 E322.30866
G1 X151.747 Y118.083 E326.84837
G1 X151.747 Y118.969 E326.87585
G1 X48.253 Y15.475 E331.41556
G1 X48.253 Y16.361 E331.44304
G1 X151.747 Y119.855 E335.98276
G1 X151.747 Y120.741 E336.01023
G1 X48.253 Y17.247 E340.54995
G1 X48.253 Y18.133 E340.57743
G1 X151.747 Y121.626 E345.11714
G1 X151.747 Y122.512 E345.14462
G1 X48.253 Y19.019 E349.68433
G1 X48.253 Y19.905 E349.71181
G1 X151.747 Y123.398 E354.25153
G1 X151.747 Y124.284 E354.27901
G1 X48.253 Y20.791 E358.81872
G1 X48.253 Y21.677 E358.84620
G1 X151.747 Y125.170 E363.38591
G1 X151.747 Y126.056 E363.41339
G1 X48.253 Y22.563 E367.95311
G1 X48.253 Y23.448 E367.98058
G1 X151.747 Y126.942 E372.52030
G1 X151.747 Y127.828 E372.54778
G1 X48.253 Y24.334 E377.08749
G1 X48.253 Y25.220 E377.11497
G1 X151.747 Y128.714 E381.65469
G1 X151.747 Y129.599 E381.68216
G1 X48.253 Y26.106 E386.22188
G1 X48.253 Y26.992 E386.24936
G1 X151.747 Y130.485 E390.78907
G1 X151.747 Y131.371 E390.81655
G1 X48.253 Y27.878 E395.35626
G1 X48.253 Y28.764 E395.38374
G1 X151.747 Y132.257 E399.92346
G1 X151.747 Y133.143 E399.95093
G1 X48.253 Y29.650 E404.49065
G1 X48.253 Y30.536 E404.51813
G1 X151.747 Y134.029 E409.05784
G1 X151.747 Y134.915 E409.08532
G1 X48.253 Y31.421 E413.62504
G1 X48.253 Y32.307 E413.65251
G1 X151.747 Y135.801 E418.19223
G1 X151.747 Y136.687 E418.21971
G1 X48.253 Y33.193 E422.75942
G1 X48.253 Y34.079 E422.78690
G1 X151.747 Y137.572 E427.32661
G1 X151.747 Y138.458 E427.35409
G1 X48.253 Y34.965 E431.89381
G1 X48.253 Y35.851 E431.92129
G1 X151.747 Y139.344 E436.46100
G1 X151.747 Y140.230 E436.48848
G1 X48.253 Y36.737 E441.02819
G1 X48.253 Y37.623 E441.05567
G1 X151.747 Y141.116 E445.59539
G1 X151.747 Y142.002 E445.62286
G1 X48.253 Y38.509 E450.16258
G1 X48.253 Y39.395 E450.19006
G1 X151.747 Y142.888 E454.72977
G1 X151.747 Y143.774 E454.75725
G1 X48.253 Y40.280 E459.29697
G1 X48.253 Y41.166 E459.32444
G1 X151.747 Y144.660 E463.86416
G1 X151.747 Y145.545 E463.89164
G1 X48.253 Y42.052 E468.43135
G1 X48.253 Y42.938 E468.45883
G1 X151.747 Y146.431 E472.99854
G1 X151.747 Y147.317 E473.02602
G1 X48.253 Y43.824 E477.56574
G1 X48.253 Y44.710 E477.59321
G1 X151.747 Y148.203 E482.13293
G1 X151.747 Y149.089 E482.16041
G1 X48.253 Y45.596 E486.70012
G1 X48.253 Y46.482 E486.72760
G1 X151.747 Y149.975 E491.26732
G1 X151.747 Y150.861 E491.29479
G1 X48.253 Y47.368 E495.83451
G1 X48.253 Y48.253 E495.86199
G1 X151.747 Y151.747 E500.40170
G1 X151.747 Y152.633 E500.42918
G1 X48.253 Y49.139 E504.96890
G1 X48.253 Y50.025 E504.99637
G1 X151.747 Y153.519 E509.53609
G1 X151.747 Y154.404 E509.56357
G1 X48.253 Y50.911 E514.10328
G1 X48.253 Y51.797 E514.13076
G1 X151.747 Y155.290 E518.67047
G1 X151.747 Y156.176 E518.69795
G1 X48.253 Y52.683 E523.23767
G1 X48.253 Y53.569 E523.26514
G1 X151.747 Y157.062 E527.80486
G1 X151.747 Y157.948 E527.83234
G1 X48.253 Y54.455 E532.37205
G1 X48.253 Y55.341 E532.39953
G1 X151.747 Y158.834 E536.93925
G1 X151.747 Y159.720 E536.96672
G1 X48.253 Y56.226 E541.50644
G1 X48.253 Y57.112 E541.53392
G1 X151.747 Y160.606 E546.07363
G1 X151.747 Y161.492 E546.10111
G1 X48.253 Y57.998 E550.64083
G1 X48.253 Y58.884 E550.66830
G1 X151.747 Y162.377 E555.20802
G1 X151.747 Y163.263 E555.23550
G1 X48.253 Y59.770 E559.77521
G1 X48.253 Y60.656 E559.80269
G1 X151.747 Y164.149 E564.34240
G1 X151.747 Y165.035 E564.36988
G1 X48.253 Y61.542 E568.90960
G1 X48.253 Y62.428 E568.93708
G1 X151.747 Y165.921 E573.47679
G1 X151.747 Y166.807 E573.50427
G1 X48.253 Y63.314 E578.04398
G1 X48.253 Y64.199 E578.07146
G1 X151.747 Y167.693 E582.61118
G1 X151.747 Y168.579 E582.63865
G1 X48.253 Y65.085 E587.17837
G1 X48.253 Y65.971 E587.20585
G1 X151.747 Y169.465 E591.74556
G1 X151.747 Y170.350 E591.77304
G1 X48.253 Y66.857 E596.31276
G1 X48.253 Y67.743 E596.34023
G1 X151.747 Y171.236 E600.87995
G1 X151.747 Y172.122 E600.90743
G1 X48.253 Y68.629 E605.44714
G1 X48.253 Y69.515 E605.47462
G1 X151.747 Y173.008 E610.01434
G1 X151.747 Y173.894 E610.04181
G1 X48.253 Y70.401 E614.58153
G1 X48.253 Y71.287 E614.60901
G1 X151.747 Y174.780 E619.14872
G1 X151.747 Y175.666 E619.17620
G1 X48.253 Y72.173 E623.71591
G1 X48.253 Y73.058 E623.74339
G1 X151.747 Y176.552 E628.28311
G1 X151.747 Y177.438 E628.31059
G1 X48.253 Y73.944 E632.85030
G1 X48.253 Y74.830 E632.87778
G1 X151.747 Y178.323 E637.41749
G1 X151.747 Y179.209 E637.44497
G1 X48.253 Y75.716 E641.98469
G1 X48.253 Y76.602 E642.01216
G1 X151.747 Y180.095 E646.55188
G1 X151.747 Y180.981 E646.57936
G1 X48.253 Y77.488 E651.11907
G1 X48.253 Y78.374 E651.14655
G1 X151.747 Y181.867 E655.68627
G1 X151.747 Y182.753 E655.71374
G1 X48.253 Y79.260 E660.25346
G1 X48.253 Y80.146 E660.28094
G1 X151.747 Y183.639 E664.82065
G1 X151.747 Y184.525 E664.84813
G1 X48.253 Y81.031 E669.38785
G1 X48.253 Y81.917 E669.41532
G1 X151.747 Y185.411 E673.95504
G1 X151.322 Y185.872 E673.97448
G1 X48.253 Y82.803 E678.49556
G1 X48.253 Y83.689 E678.52304
G1 X150.436 Y185.872 E683.00526
G1 X149.550 Y185.872 E683.03274
G1 X48.253 Y84.575 E687.47610
G1 X48.253 Y85.461 E687.50357
G1 X148.664 Y185.872 E691.90807
G1 X147.778 Y185.872 E691.93555
G1 X48.253 Y86.347 E696.30119
G1 X48.253 Y87.233 E696.32867
G1 X146.892 Y185.872 E700.65545
G1 X146.006 Y185.872 E700.68293
G1 X48.253 Y88.119 E704.97085
G1 X48.253 Y89.004 E704.99833
G1 X145.121 Y185.872 E709.24739
G1 X144.235 Y185.872 E709.27487
G1 X48.253 Y89.890 E713.48507
G1 X48.253 Y90.776 E713.51255
G1 X143.349 Y185.872 E717.68389
G1 X142.463 Y185.872 E717.71137
G1 X48.253 Y91.662 E721.84385
G1 X48.253 Y92.548 E721.87133
G1 X141.577 Y185.872 E725.96495
G1 X140.691 Y185.872 E725.99243
G1 X48.253 Y93.434 E730.04720
G1 X48.253 Y94.320 E730.07467
G1 X139.805 Y185.872 E734.09058
G1 X138.919 Y185.872 E734.11806
G1 X48.253 Y95.206 E738.09510
G1 X48.253 Y96.092 E738.12258
G1 X138.033 Y185.872 E742.06077
G1 X137.148 Y185.872 E742.08824
G1 X48.253 Y96.977 E745.98757
G1 X48.253 Y97.863 E746.01505
G1 X136.262 Y185.872 E749.87551
G1 X135.376 Y185.872 E749.90299
G1 X48.253 Y98.749 E753.72460
G1 X48.253 Y99.635 E753.75208
G1 X134.490 Y185.872 E757.53483
G1 X133.604 Y185.872 E757.56230
G1 X48.253 Y100.521 E761.30619
G1 X48.253 Y101.407 E761.33367
G1 X132.718 Y185.872 E765.03870
G1 X131.832 Y185.872 E765.06618
G1 X48.253 Y102.293 E768.73235
G1 X48.253 Y103.179 E768.75982
G1 X130.946 Y185.872 E772.38713
G1 X130.060 Y185.872 E772.41461
G1 X48.253 Y104.065 E776.00306
G1 X48.253 Y104.951 E776.03054
G1 X129.174 Y185.872 E779.58013
G1 X128.289 Y185.872 E779.60761
G1 X48.253 Y105.836 E783.11834
G1 X48.253 Y106.722 E783.14582
G1 X127.403 Y185.872 E786.61769
G1 X126.517 Y185.872 E786.64517
G1 X48.253 Y107.608 E790.07818
G1 X48.253 Y108.494 E790.10566
G1 X125.631 Y185.872 E793.49981
G1 X124.745 Y185.872 E793.52729
G1 X48.253 Y109.380 E796.88258
G1 X48.253 Y110.266 E796.91006
G1 X123.859 Y185.872 E800.22649
G1 X122.973 Y185.872 E800.25397
G1 X48.253 Y111.152 E803.53154
G1 X48.253 Y112.038 E803.55902
G1 X122.087 Y185.872 E806.79774
G1 X121.201 Y185.872 E806.82522
G1 X48.253 Y112.924 E810.02507
G1 X48.253 Y113.809 E810.05255
