; generated by PrusaSlicer 2.8.0 on 2024-08-13 at 22:46:27 UTC

; 

; external perimeters extrusion width = 0.42mm
; perimeters extrusion width = 0.44mm
; infill extrusion width = 0.44mm
; solid infill extrusion width = 0.44mm
; top infill extrusion width = 0.40mm
; first layer extrusion width = 0.42mm

M201 X500 Y500 Z100 E5000 ; sets maximum accelerations, mm/sec^2
M203 X500 Y500 Z10 E60 ; sets maximum feedrates, mm / sec
M204 S500 T1000 ; sets acceleration (S) and retract acceleration (R), mm/sec^2
M205 X8.00 Y8.00 Z0.40 E5.00 ; sets the jerk limits, mm/sec
M205 S0 T0 ; sets the minimum extruding and travel feed rate, mm/sec

; printing object 3dbenchy.stl id:0 copy 0
; stop printing object 3dbenchy.stl id:0 copy 0

;TYPE:Custom
G90 ; use absolute coordinates
M83 ; extruder relative mode
M104 S150 ; set temporary nozzle temp to prevent oozing during homing
M140 S60 ; set final bed temp
G4 S30 ; allow partial nozzle warmup
G28 ; home all axis
G1 Z50 F240
G1 X2.0 Y10 F3000
M104 S215 ; set final nozzle temp
M190 S60 ; wait for bed temp to stabilize
M109 S215 ; wait for nozzle temp to stabilize
G1 Z0.28 F240
G92 E0
G21 ; set units to millimeters
G90 ; use absolute coordinates
M83 ; use relative distances for extrusion
; Filament gcode
M107
;LAYER_CHANGE
;Z:0.2
;HEIGHT:0.2
G1 E-5 F3600
G1 Z.2 F9000
G1 X136.731 Y165.838
G1 Z.2
G1 E5 F2400
M204 S500
;TYPE:Skirt/Brim
;WIDTH:0.42
G1 F1200
G1 X137.839 Y165.275 E.03897
G1 X138.535 Y165.071 E.02274
G1 X139.27 Y164.962 E.0233
G1 X162.848 Y163.493 E.74071
G1 X164.211 Y163.461 E.04275
G1 X166.748 Y163.668 E.07981
G1 X169.111 Y164.181 E.07582
G1 X171.444 Y165.016 E.07769
G1 X173.649 Y166.155 E.07782
G1 X175.631 Y167.532 E.07567
G1 X177.374 Y169.106 E.07364
G1 X178.981 Y170.984 E.0775
G1 X180.319 Y173.058 E.07739
G1 X180.71 Y174.119 E.03545
G1 X180.849 Y175.285 E.03682
G1 X180.717 Y176.39 E.03489
G1 X180.257 Y177.597 E.0405
G1 X179.111 Y179.377 E.06638
G1 X177.745 Y181.04 E.06748
G1 X176.27 Y182.474 E.0645
G1 X174.662 Y183.726 E.0639
G1 X173.448 Y184.501 E.04516
G1 X172.171 Y185.185 E.04542
G1 X170.845 Y185.769 E.04543
G1 X169.518 Y186.235 E.0441
G1 X168.114 Y186.611 E.04557
G1 X166.698 Y186.876 E.04517
G1 X165.285 Y187.031 E.04457
G1 X163.842 Y187.077 E.04527
G1 X138.914 Y185.535 E.78309
G1 X137.847 Y185.265 E.03451
G1 X136.832 Y184.765 E.03548
G1 X136.124 Y184.226 E.0279
G1 X135.392 Y183.405 E.03449
G1 X134.984 Y182.737 E.02454
G1 X134.697 Y182.067 E.02285
G1 X134.404 Y180.683 E.04436
G1 X134.404 Y169.854 E.33954
G1 X134.626 Y168.685 E.03731
G1 X135.166 Y167.473 E.0416
G1 X135.857 Y166.571 E.03563
G1 X136.685 Y165.876 E.03389
G1 X136.685 Y165.876 F9000
G1 X136.926 Y166.163
G1 F1200
G1 X136.937 Y166.154 E.00045
G1 X137.973 Y165.627 E.03644
G1 X139.305 Y165.337 E.04274
G1 X164.208 Y163.838 E.78223
G1 X166.694 Y164.041 E.07821
G1 X169.01 Y164.544 E.07431
G1 X171.292 Y165.361 E.076
G1 X173.456 Y166.479 E.07637
G1 X175.397 Y167.828 E.07411
G1 X177.102 Y169.367 E.07202
G1 X178.68 Y171.211 E.0761
G1 X179.981 Y173.227 E.07523
G1 X180.363 Y174.289 E.03539
G1 X180.468 Y175.457 E.03677
G1 X180.301 Y176.489 E.03278
G1 X179.884 Y177.491 E.03403
G1 X178.736 Y179.251 E.06589
G1 X177.436 Y180.819 E.06386
G1 X175.853 Y182.335 E.06872
G1 X174.196 Y183.588 E.06514
G1 X172.978 Y184.336 E.04482
G1 X171.704 Y184.99 E.0449
G1 X170.382 Y185.543 E.04493
G1 X169.086 Y185.971 E.04279
G1 X166.416 Y186.536 E.08557
G1 X165.046 Y186.668 E.04315
G1 X163.664 Y186.698 E.04334
G1 X138.973 Y185.162 E.77567
G1 X137.98 Y184.912 E.03211
G1 X137.038 Y184.449 E.03291
G1 X136.219 Y183.796 E.03284
G1 X135.557 Y182.978 E.03299
G1 X134.989 Y181.748 E.04248
G1 X134.767 Y180.451 E.04126
G1 X134.78 Y169.889 E.33116
G1 X134.988 Y168.791 E.03504
G1 X135.487 Y167.672 E.03842
G1 X136.127 Y166.834 E.03306
G1 X136.88 Y166.201 E.03084
G1 E-3.5 F3600
;WIPE_START
G1 F7200
G1 X136.926 Y166.163 E-.02834
G1 X136.937 Y166.154 E-.00675
G1 X137.973 Y165.627 E-.55211
G1 X139.305 Y165.337 E-.64752
G1 X139.862 Y165.303 E-.26528
;WIPE_END
; printing object 3dbenchy.stl id:0 copy 0
G1 X162.305 Y173.969 F9000
G1 E5 F2400
;TYPE:External perimeter
;WIDTH:0.419999
G1 F1200
G1 X162.307 Y173.947 E.00069
G1 X162.391 Y173.78 E.00586
G1 X162.631 Y173.561 E.01019
G1 X163.048 Y173.445 E.01357
G1 X163.467 Y173.582 E.01382
G1 X163.791 Y173.974 E.01595
G1 X163.988 Y174.444 E.01598
G1 X164.093 Y174.573 E.00522
G1 X164.252 Y174.364 E.00823
G1 X164.454 Y173.89 E.01616
G1 X164.828 Y173.528 E.01632
G1 X165.233 Y173.452 E.01292
G1 X165.533 Y173.578 E.0102
;WIDTH:0.43774
G1 X165.813 Y173.916 E.01441
;WIDTH:0.464744
G1 X165.887 Y174.217 E.01087
G1 X165.773 Y174.566 E.01288
;WIDTH:0.419999
G1 X165.102 Y175.703 E.04139
G1 X165.017 Y175.971 E.00882
G1 X165.105 Y176.243 E.00896
G1 X165.732 Y177.286 E.03816
G1 X165.887 Y177.646 E.01229
G1 X165.921 Y177.923 E.00875
G1 X165.877 Y178.189 E.00845
G1 X165.744 Y178.418 E.0083
G1 X165.483 Y178.604 E.01005
G1 X165.084 Y178.675 E.01271
G1 X164.835 Y178.612 E.00805
G1 X164.642 Y178.483 E.00728
G1 X164.493 Y178.302 E.00735
G1 X164.297 Y177.911 E.01371
G1 X164.208 Y177.649 E.00868
G1 X164.032 Y177.468 E.00792
G1 X163.871 Y177.63 E.00716
G1 X163.758 Y177.941 E.01037
G1 X163.496 Y178.376 E.01592
G1 X163.096 Y178.64 E.01503
G1 X162.799 Y178.631 E.00932
G1 X162.503 Y178.47 E.01056
;WIDTH:0.421145
G1 X162.297 Y178.203 E.01061
;WIDTH:0.427023
G1 X162.276 Y177.916 E.00919
G1 X162.391 Y177.404 E.01676
;WIDTH:0.42605
G1 X162.637 Y176.952 E.01639
;WIDTH:0.419999
G1 X162.9 Y176.482 E.01689
G1 X163.196 Y176.033 E.01686
G1 X162.437 Y174.726 E.04739
G1 X162.282 Y174.24 E.01599
G1 X162.3 Y174.028 E.00667
G1 E-3.5 F3600
;WIPE_START
G1 F7200
G1 X162.305 Y173.969 E-.02813
G1 X162.307 Y173.947 E-.01049
G1 X162.391 Y173.78 E-.08879
G1 X162.631 Y173.561 E-.15433
G1 X163.048 Y173.445 E-.2056
G1 X163.467 Y173.582 E-.20939
G1 X163.791 Y173.974 E-.24157
G1 X163.988 Y174.444 E-.24207
G1 X164.093 Y174.573 E-.07901
G1 X164.252 Y174.364 E-.12474
G1 X164.348 Y174.139 E-.11588
;WIPE_END
G1 X161.265 Y176.476 F9000
G1 E5 F2400
G1 F1200
G1 X161.584 Y176.689 E.01203
G1 X161.845 Y177.073 E.01456
;WIDTH:0.437596
G1 X161.949 Y177.519 E.01503
G1 X161.87 Y178.073 E.01836
;WIDTH:0.423933
G1 X161.611 Y178.534 E.01675
;WIDTH:0.419999
G1 X161.249 Y178.811 E.01429
G1 X160.929 Y178.919 E.01059
G1 X160.682 Y178.94 E.00777
G1 X160.227 Y178.857 E.0145
G1 X159.83 Y178.615 E.01458
G1 X159.552 Y178.241 E.01461
G1 X159.443 Y177.784 E.01473
G1 X159.566 Y177.249 E.01721
;WIDTH:0.391
G1 X159.789 Y176.843 E.01341
;WIDTH:0.419999
G1 X160.177 Y176.472 E.01683
G1 X160.705 Y176.336 E.0171
G1 X161.197 Y176.431 E.01571
G1 X161.215 Y176.443 E.00068
G1 X159.731 Y176.118 F9000
G1 F1200
G1 X159.501 Y176.646 E.01806
;WIDTH:0.391
G1 X159.265 Y177.13 E.01558
;WIDTH:0.419999
G1 X158.989 Y177.604 E.0172
G1 X158.874 Y177.765 E.0062
G1 X158.42 Y178.126 E.01819
G1 X157.798 Y178.35 E.02073
G1 X157.3 Y178.435 E.01584
G1 X156.775 Y178.462 E.01648
G1 X156.048 Y178.455 E.0228
G1 X155.453 Y178.495 E.0187
G1 X155.046 Y178.367 E.01338
G1 X154.807 Y178.03 E.01295
G1 X154.72 Y177.526 E.01604
G1 X154.737 Y176.933 E.0186
G1 X154.742 Y173.319 E.11331
G1 X154.708 Y172.655 E.02085
G1 X154.864 Y172.285 E.01259
G1 X154.995 Y172.186 E.00515
G1 X155.352 Y172.023 E.01231
G1 X155.656 Y171.992 E.00958
G1 X157.253 Y172.029 E.05009
G1 X157.845 Y172.114 E.01875
G1 X158.332 Y172.267 E.01601
G1 X158.714 Y172.485 E.01379
G1 X159.026 Y172.759 E.01302
G1 X159.331 Y173.153 E.01562
G1 X159.566 Y173.607 E.01603
G1 X159.756 Y174.238 E.02066
G1 X159.831 Y174.826 E.01859
G1 X159.83 Y175.595 E.02411
G1 X159.745 Y176.06 E.01482
G1 E-3.5 F3600
;WIPE_START
G1 F7200
G1 X159.731 Y176.118 E-.02834
G1 X159.501 Y176.646 E-.27356
G1 X159.265 Y177.13 E-.25577
G1 X158.989 Y177.604 E-.26054
G1 X158.874 Y177.765 E-.09398
G1 X158.42 Y178.126 E-.27552
G1 X157.801 Y178.348 E-.31229
;WIPE_END
G1 X166.326 Y174.318 F9000
G1 E5 F2400
;WIDTH:0.457205
G1 F1200
G1 X166.317 Y174.282 E.00128
;WIDTH:0.461804
G1 X166.308 Y174.101 E.00631
G1 X166.416 Y173.78 E.0118
;WIDTH:0.419999
G1 X166.646 Y173.539 E.01045
G1 X166.922 Y173.45 E.00909
G1 X167.269 Y173.478 E.01092
G1 X167.679 Y173.7 E.01462
G1 X167.867 Y173.992 E.01089
G1 X168.22 Y175.156 E.03814
G1 X168.256 Y175.374 E.00693
G1 X168.455 Y175.906 E.01781
G1 X168.516 Y175.885 E.00202
G1 X168.836 Y174.642 E.04024
G1 X169.107 Y173.949 E.02333
G1 X169.35 Y173.639 E.01235
G1 X169.686 Y173.456 E.012
G1 X169.958 Y173.475 E.00855
G1 X170.144 Y173.567 E.00651
;WIDTH:0.427324
G1 X170.458 Y173.93 E.01534
;WIDTH:0.431844
G1 X170.512 Y174.183 E.00837
;WIDTH:0.432724
G1 X170.473 Y174.675 E.016
G1 X170.268 Y175.135 E.01632
;WIDTH:0.419999
G1 X169.032 Y178.628 E.11617
G1 X168.654 Y179.603 E.03279
G1 X168.393 Y180.178 E.0198
G1 X168.089 Y180.63 E.01708
G1 X167.723 Y180.919 E.01462
G1 X167.254 Y181.118 E.01597
G1 X166.723 Y181.196 E.01683
G1 X166.332 Y181.093 E.01268
G1 X166.08 Y180.865 E.01066
G1 X165.931 Y180.529 E.01152
G1 X165.903 Y180.214 E.00992
G1 X166.013 Y179.91 E.01014
G1 X166.348 Y179.68 E.01274
G1 X166.845 Y179.53 E.01628
G1 X167.082 Y179.341 E.0095
G1 X167.322 Y178.825 E.01784
G1 X167.654 Y177.996 E.028
G1 X167.541 Y177.63 E.01201
G1 X167.307 Y177.079 E.01877
G1 X166.752 Y175.58 E.05012
G1 X166.456 Y174.859 E.02444
;WIDTH:0.457205
G1 X166.34 Y174.377 E.01708
G1 E-3.5 F3600
;WIPE_START
G1 F7200
G1 X166.326 Y174.318 E-.0288
G1 X166.317 Y174.282 E-.01763
G1 X166.308 Y174.101 E-.08608
G1 X166.416 Y173.78 E-.16087
G1 X166.646 Y173.539 E-.15824
G1 X166.922 Y173.45 E-.13775
G1 X167.269 Y173.478 E-.16536
G1 X167.679 Y173.7 E-.22147
G1 X167.867 Y173.992 E-.16496
G1 X168.086 Y174.715 E-.35884
;WIPE_END
G1 X170.903 Y174.513 F9000
G1 E5 F2400
;WIDTH:0.44606
G1 F1200
G1 X170.908 Y173.953 E.01877
;WIDTH:0.427324
G1 X171.004 Y173.768 E.00666
;WIDTH:0.419999
G1 X171.173 Y173.61 E.00725
G1 X171.45 Y173.487 E.0095
G1 X171.943 Y173.439 E.01553
G1 X173.953 Y173.444 E.06302
G1 X174.31 Y173.543 E.01162
G1 X174.57 Y173.799 E.01144
G1 X174.685 Y174.288 E.01575
G1 X174.646 Y174.591 E.00958
G1 X174.549 Y174.843 E.00847
G1 X174.276 Y175.278 E.0161
G1 X173.362 Y176.568 E.04957
G1 X173.161 Y176.796 E.00953
G1 X172.985 Y177.07 E.01021
G1 X173.478 Y177.08 E.01546
G1 X173.677 Y177.044 E.00634
G1 X174.155 Y177.11 E.01513
G1 X174.4 Y177.226 E.0085
G1 X174.648 Y177.504 E.01168
G1 X174.696 Y177.817 E.00993
G1 X174.609 Y178.034 E.00733
;WIDTH:0.389322
G1 X174.523 Y178.251 E.00672
;WIDTH:0.381729
G1 X174.299 Y178.455 E.00854
;WIDTH:0.419999
G1 X173.805 Y178.61 E.01623
G1 X173.151 Y178.656 E.02056
G1 X172.265 Y178.653 E.02778
G1 X171.581 Y178.68 E.02146
G1 X171.172 Y178.566 E.01331
G1 X170.892 Y178.221 E.01393
G1 X170.81 Y177.897 E.01048
G1 X170.818 Y177.628 E.00844
G1 X170.894 Y177.359 E.00876
G1 X171.221 Y176.805 E.02017
G1 X171.997 Y175.766 E.04066
G1 X172.498 Y175.193 E.02386
G1 X172.577 Y174.991 E.0068
G1 X172.365 Y174.95 E.00677
G1 X171.924 Y175.012 E.01396
G1 X171.452 Y174.984 E.01483
G1 X171.215 Y174.889 E.00801
;WIDTH:0.432724
G1 X170.957 Y174.648 E.01144
;WIDTH:0.44606
G1 X170.924 Y174.569 E.00287
G1 E-3.5 F3600
;WIPE_START
G1 F7200
G1 X170.903 Y174.513 E-.02841
G1 X170.908 Y173.953 E-.26601
G1 X171.004 Y173.768 E-.099
G1 X171.173 Y173.61 E-.10989
G1 X171.45 Y173.487 E-.14396
G1 X171.943 Y173.439 E-.23528
G1 X173.243 Y173.442 E-.61745
;WIPE_END
G1 X153.931 Y176.385 F9000
G1 E5 F2400
;WIDTH:0.419999
G1 F1200
G1 X153.909 Y176.838 E.01422
G1 X153.711 Y177.427 E.01948
G1 X153.367 Y177.949 E.0196
G1 X152.991 Y178.271 E.01552
G1 X152.585 Y178.481 E.01433
G1 X152.142 Y178.598 E.01437
G1 X151.379 Y178.627 E.02394
G1 X150.687 Y178.493 E.0221
G1 X150.191 Y178.225 E.01768
G1 X149.965 Y177.971 E.01066
G1 X149.862 Y177.746 E.00776
G1 X149.812 Y177.479 E.00852
G1 X149.837 Y177.21 E.00847
G1 X149.941 Y176.975 E.00806
G1 X150.117 Y176.798 E.00783
G1 X150.403 Y176.672 E.0098
G1 X150.745 Y176.65 E.01075
G1 X151.053 Y176.727 E.00995
G1 X151.667 Y177.111 E.02271
G1 X151.891 Y177.088 E.00706
G1 X152.098 Y176.932 E.00813
G1 X152.216 Y176.719 E.00763
G1 X152.21 Y176.433 E.00897
G1 X152.09 Y176.169 E.00909
G1 X151.81 Y175.901 E.01215
G1 X150.774 Y175.571 E.03409
G1 X150.534 Y175.265 E.01219
G1 X150.5 Y174.879 E.01215
G1 X150.58 Y174.607 E.00889
;WIDTH:0.449052
G1 X150.727 Y174.414 E.00819
;WIDTH:0.478105
G1 X150.874 Y174.22 E.00881
;WIDTH:0.519481
G1 X151.219 Y174.101 E.01446
;WIDTH:0.560857
G1 X151.564 Y173.981 E.01573
;WIDTH:0.561528
G1 X151.764 Y173.873 E.0098
G1 X151.864 Y173.671 E.00972
G1 X151.778 Y173.468 E.00951
G1 X151.562 Y173.438 E.0094
G1 X151.256 Y173.582 E.01458
;WIDTH:0.516737
G1 X150.949 Y173.725 E.01334
;WIDTH:0.471945
G1 X150.692 Y173.819 E.00976
;WIDTH:0.471036
G1 X150.48 Y173.763 E.00781
;WIDTH:0.445518
G1 X150.268 Y173.708 E.00733
;WIDTH:0.419999
G1 X150.054 Y173.531 E.00871
G1 X149.902 Y173.303 E.00859
;WIDTH:0.436253
G1 X149.812 Y173.054 E.00866
;WIDTH:0.439444
G1 X149.82 Y172.786 E.00884
G1 X149.911 Y172.573 E.00764
;WIDTH:0.422063
G1 X150.29 Y172.196 E.01685
;WIDTH:0.419999
G1 X150.906 Y171.924 E.02111
G1 X151.514 Y171.834 E.01927
G1 X151.932 Y171.837 E.01311
G1 X152.52 Y171.935 E.01869
G1 X153.011 Y172.153 E.01684
G1 X153.392 Y172.499 E.01614
G1 X153.59 Y172.844 E.01247
G1 X153.679 Y173.174 E.01072
G1 X153.681 Y173.684 E.01599
G1 X153.56 Y174.203 E.01671
G1 X153.194 Y174.612 E.01721
G1 X152.879 Y174.779 E.01118
G1 X153.212 Y174.924 E.01139
G1 X153.573 Y175.245 E.01515
G1 X153.806 Y175.772 E.01807
G1 X153.925 Y176.326 E.01777
G1 E-3.5 F3600
;WIPE_START
G1 F7200
G1 X153.931 Y176.385 E-.02817
G1 X153.909 Y176.838 E-.21543
G1 X153.711 Y177.427 E-.29516
G1 X153.367 Y177.949 E-.29695
G1 X152.991 Y178.271 E-.23514
G1 X152.585 Y178.481 E-.21712
G1 X152.153 Y178.595 E-.21203
;WIPE_END
G1 X149.257 Y173.209 F9000
G1 E5 F2400
;WIDTH:0.422933
G1 F1200
G1 X149.189 Y173.317 E.00403
;WIDTH:0.419999
G1 X148.931 Y173.489 E.00972
G1 X148.434 Y173.58 E.01584
G1 X147.474 Y173.581 E.0301
G1 X147.457 Y174.511 E.02916
G1 X147.47 Y177.623 E.09758
G1 X147.328 Y178.125 E.01636
G1 X147.125 Y178.344 E.00936
G1 X146.902 Y178.452 E.00777
G1 X146.576 Y178.484 E.01027
G1 X146.228 Y178.389 E.01131
G1 X145.981 Y178.175 E.01025
G1 X145.878 Y177.889 E.00953
G1 X145.907 Y177.197 E.02172
G1 X145.89 Y174.418 E.08714
G1 X145.923 Y173.891 E.01656
G1 X145.88 Y173.662 E.00731
G1 X145.651 Y173.566 E.00779
G1 X145.336 Y173.56 E.00988
G1 X144.832 Y173.621 E.01592
G1 X144.456 Y173.559 E.01195
G1 X144.194 Y173.354 E.01043
;WIDTH:0.45361
G1 X144.107 Y173.228 E.00523
;WIDTH:0.487221
G1 X144.02 Y173.102 E.00566
G1 X143.98 Y172.828 E.01023
;WIDTH:0.472083
G1 X144.049 Y172.591 E.00881
;WIDTH:0.446041
G1 X144.118 Y172.353 E.00831
;WIDTH:0.419999
G1 X144.4 Y172.067 E.01259
G1 X144.796 Y171.972 E.01277
G1 X145.404 Y172.014 E.01911
G1 X148.705 Y172.004 E.1035
G1 X149.092 Y172.126 E.01272
G1 X149.315 Y172.412 E.01137
;WIDTH:0.451209
G1 X149.393 Y172.838 E.0147
G1 X149.326 Y173.099 E.00915
;WIDTH:0.422933
G1 X149.289 Y173.158 E.0022
G1 E-3.5 F3600
;WIPE_START
G1 F7200
G1 X149.257 Y173.209 E-.0286
G1 X149.189 Y173.317 E-.06062
G1 X148.931 Y173.489 E-.14729
G1 X148.434 Y173.58 E-.24
G1 X147.474 Y173.581 E-.456
G1 X147.457 Y174.511 E-.44182
G1 X147.458 Y174.776 E-.12567
;WIPE_END
G1 X143.569 Y173.127 F9000
G1 E5 F2400
;WIDTH:0.473822
G1 F1200
G1 X143.57 Y173.313 E.00666
;WIDTH:0.460756
G1 X143.42 Y173.629 E.01215
;WIDTH:0.419999
G1 X143.193 Y173.844 E.0098
G1 X142.839 Y173.974 E.01182
G1 X142.617 Y173.957 E.00698
G1 X142.377 Y173.878 E.00792
G1 X141.617 Y173.472 E.02702
G1 X141.156 Y173.494 E.01447
G1 X140.832 Y173.641 E.01116
G1 X140.542 Y173.962 E.01356
G1 X140.365 Y174.441 E.01601
G1 X140.351 Y174.587 E.0046
G1 X140.29 Y175.191 E.01903
G1 X140.357 Y175.991 E.02517
G1 X140.543 Y176.508 E.01723
G1 X140.798 Y176.789 E.0119
G1 X141.143 Y176.971 E.01223
G1 X141.541 Y177.013 E.01255
G1 X141.922 Y176.939 E.01217
G1 X142.325 Y176.593 E.01665
G1 X142.728 Y176.499 E.01297
G1 X143.092 Y176.582 E.01171
G1 X143.365 Y176.754 E.01012
G1 X143.552 Y177.036 E.01061
G1 X143.581 Y177.383 E.01092
G1 X143.359 Y177.834 E.01576
G1 X143.144 Y178.081 E.01027
G1 X142.903 Y178.273 E.00966
